(Generated by coilgen.py)
(Coil winding process)
(Args: ./coilgen.py --awg 30 --turns 357 --length 5 --idiam 4 )
(Units: X mm, Y rotations)
(Feed rate RPM: 30.00)
(Coil Length: 4.94mm)
(Wire AWG: 30)
(Wire Wdiam: 0.291mm)
(Total Windings: 357)
(Turns per layer: 17)
(Layers: 21)
(Coil internal diameter 4.000mm)
(Coil external diameter 16.215mm)
(Winding will start and stop at opposite ends.)
G21 (metric ftw)
G90 (absolute mode)
G92 X0 Y0 (zero all axes)
G1 X0.291 Y1 F30.00
(T: 1 L: 1)
G1 X0.582 Y2 F30.00
(T: 2 L: 1)
G1 X0.872 Y3 F30.00
(T: 3 L: 1)
G1 X1.163 Y4 F30.00
(T: 4 L: 1)
G1 X1.454 Y5 F30.00
(T: 5 L: 1)
G1 X1.745 Y6 F30.00
(T: 6 L: 1)
G1 X2.036 Y7 F30.00
(T: 7 L: 1)
G1 X2.327 Y8 F30.00
(T: 8 L: 1)
G1 X2.617 Y9 F30.00
(T: 9 L: 1)
G1 X2.908 Y10 F30.00
(T: 10 L: 1)
G1 X3.199 Y11 F30.00
(T: 11 L: 1)
G1 X3.490 Y12 F30.00
(T: 12 L: 1)
G1 X3.781 Y13 F30.00
(T: 13 L: 1)
G1 X4.072 Y14 F30.00
(T: 14 L: 1)
G1 X4.362 Y15 F30.00
(T: 15 L: 1)
G1 X4.653 Y16 F30.00
(T: 16 L: 1)
G1 X4.944 Y17 F30.00
(T: 17 L: 1)
G1 X4.653 Y18 F30.00
(T: 18 L: 2)
G1 X4.362 Y19 F30.00
(T: 19 L: 2)
G1 X4.072 Y20 F30.00
(T: 20 L: 2)
G1 X3.781 Y21 F30.00
(T: 21 L: 2)
G1 X3.490 Y22 F30.00
(T: 22 L: 2)
G1 X3.199 Y23 F30.00
(T: 23 L: 2)
G1 X2.908 Y24 F30.00
(T: 24 L: 2)
G1 X2.617 Y25 F30.00
(T: 25 L: 2)
G1 X2.327 Y26 F30.00
(T: 26 L: 2)
G1 X2.036 Y27 F30.00
(T: 27 L: 2)
G1 X1.745 Y28 F30.00
(T: 28 L: 2)
G1 X1.454 Y29 F30.00
(T: 29 L: 2)
G1 X1.163 Y30 F30.00
(T: 30 L: 2)
G1 X0.872 Y31 F30.00
(T: 31 L: 2)
G1 X0.582 Y32 F30.00
(T: 32 L: 2)
G1 X0.291 Y33 F30.00
(T: 33 L: 2)
G1 X-0.000 Y34 F30.00
(T: 34 L: 2)
G1 X0.291 Y35 F30.00
(T: 35 L: 3)
G1 X0.582 Y36 F30.00
(T: 36 L: 3)
G1 X0.872 Y37 F30.00
(T: 37 L: 3)
G1 X1.163 Y38 F30.00
(T: 38 L: 3)
G1 X1.454 Y39 F30.00
(T: 39 L: 3)
G1 X1.745 Y40 F30.00
(T: 40 L: 3)
G1 X2.036 Y41 F30.00
(T: 41 L: 3)
G1 X2.327 Y42 F30.00
(T: 42 L: 3)
G1 X2.617 Y43 F30.00
(T: 43 L: 3)
G1 X2.908 Y44 F30.00
(T: 44 L: 3)
G1 X3.199 Y45 F30.00
(T: 45 L: 3)
G1 X3.490 Y46 F30.00
(T: 46 L: 3)
G1 X3.781 Y47 F30.00
(T: 47 L: 3)
G1 X4.072 Y48 F30.00
(T: 48 L: 3)
G1 X4.362 Y49 F30.00
(T: 49 L: 3)
G1 X4.653 Y50 F30.00
(T: 50 L: 3)
G1 X4.944 Y51 F30.00
(T: 51 L: 3)
G1 X4.653 Y52 F30.00
(T: 52 L: 4)
G1 X4.362 Y53 F30.00
(T: 53 L: 4)
G1 X4.072 Y54 F30.00
(T: 54 L: 4)
G1 X3.781 Y55 F30.00
(T: 55 L: 4)
G1 X3.490 Y56 F30.00
(T: 56 L: 4)
G1 X3.199 Y57 F30.00
(T: 57 L: 4)
G1 X2.908 Y58 F30.00
(T: 58 L: 4)
G1 X2.617 Y59 F30.00
(T: 59 L: 4)
G1 X2.327 Y60 F30.00
(T: 60 L: 4)
G1 X2.036 Y61 F30.00
(T: 61 L: 4)
G1 X1.745 Y62 F30.00
(T: 62 L: 4)
G1 X1.454 Y63 F30.00
(T: 63 L: 4)
G1 X1.163 Y64 F30.00
(T: 64 L: 4)
G1 X0.872 Y65 F30.00
(T: 65 L: 4)
G1 X0.582 Y66 F30.00
(T: 66 L: 4)
G1 X0.291 Y67 F30.00
(T: 67 L: 4)
G1 X-0.000 Y68 F30.00
(T: 68 L: 4)
G1 X0.291 Y69 F30.00
(T: 69 L: 5)
G1 X0.582 Y70 F30.00
(T: 70 L: 5)
G1 X0.872 Y71 F30.00
(T: 71 L: 5)
G1 X1.163 Y72 F30.00
(T: 72 L: 5)
G1 X1.454 Y73 F30.00
(T: 73 L: 5)
G1 X1.745 Y74 F30.00
(T: 74 L: 5)
G1 X2.036 Y75 F30.00
(T: 75 L: 5)
G1 X2.327 Y76 F30.00
(T: 76 L: 5)
G1 X2.617 Y77 F30.00
(T: 77 L: 5)
G1 X2.908 Y78 F30.00
(T: 78 L: 5)
G1 X3.199 Y79 F30.00
(T: 79 L: 5)
G1 X3.490 Y80 F30.00
(T: 80 L: 5)
G1 X3.781 Y81 F30.00
(T: 81 L: 5)
G1 X4.072 Y82 F30.00
(T: 82 L: 5)
G1 X4.362 Y83 F30.00
(T: 83 L: 5)
G1 X4.653 Y84 F30.00
(T: 84 L: 5)
G1 X4.944 Y85 F30.00
(T: 85 L: 5)
G1 X4.653 Y86 F30.00
(T: 86 L: 6)
G1 X4.362 Y87 F30.00
(T: 87 L: 6)
G1 X4.072 Y88 F30.00
(T: 88 L: 6)
G1 X3.781 Y89 F30.00
(T: 89 L: 6)
G1 X3.490 Y90 F30.00
(T: 90 L: 6)
G1 X3.199 Y91 F30.00
(T: 91 L: 6)
G1 X2.908 Y92 F30.00
(T: 92 L: 6)
G1 X2.617 Y93 F30.00
(T: 93 L: 6)
G1 X2.327 Y94 F30.00
(T: 94 L: 6)
G1 X2.036 Y95 F30.00
(T: 95 L: 6)
G1 X1.745 Y96 F30.00
(T: 96 L: 6)
G1 X1.454 Y97 F30.00
(T: 97 L: 6)
G1 X1.163 Y98 F30.00
(T: 98 L: 6)
G1 X0.872 Y99 F30.00
(T: 99 L: 6)
G1 X0.582 Y100 F30.00
(T: 100 L: 6)
G1 X0.291 Y101 F30.00
(T: 101 L: 6)
G1 X-0.000 Y102 F30.00
(T: 102 L: 6)
G1 X0.291 Y103 F30.00
(T: 103 L: 7)
G1 X0.582 Y104 F30.00
(T: 104 L: 7)
G1 X0.872 Y105 F30.00
(T: 105 L: 7)
G1 X1.163 Y106 F30.00
(T: 106 L: 7)
G1 X1.454 Y107 F30.00
(T: 107 L: 7)
G1 X1.745 Y108 F30.00
(T: 108 L: 7)
G1 X2.036 Y109 F30.00
(T: 109 L: 7)
G1 X2.327 Y110 F30.00
(T: 110 L: 7)
G1 X2.617 Y111 F30.00
(T: 111 L: 7)
G1 X2.908 Y112 F30.00
(T: 112 L: 7)
G1 X3.199 Y113 F30.00
(T: 113 L: 7)
G1 X3.490 Y114 F30.00
(T: 114 L: 7)
G1 X3.781 Y115 F30.00
(T: 115 L: 7)
G1 X4.072 Y116 F30.00
(T: 116 L: 7)
G1 X4.362 Y117 F30.00
(T: 117 L: 7)
G1 X4.653 Y118 F30.00
(T: 118 L: 7)
G1 X4.944 Y119 F30.00
(T: 119 L: 7)
G1 X4.653 Y120 F30.00
(T: 120 L: 8)
G1 X4.362 Y121 F30.00
(T: 121 L: 8)
G1 X4.072 Y122 F30.00
(T: 122 L: 8)
G1 X3.781 Y123 F30.00
(T: 123 L: 8)
G1 X3.490 Y124 F30.00
(T: 124 L: 8)
G1 X3.199 Y125 F30.00
(T: 125 L: 8)
G1 X2.908 Y126 F30.00
(T: 126 L: 8)
G1 X2.617 Y127 F30.00
(T: 127 L: 8)
G1 X2.327 Y128 F30.00
(T: 128 L: 8)
G1 X2.036 Y129 F30.00
(T: 129 L: 8)
G1 X1.745 Y130 F30.00
(T: 130 L: 8)
G1 X1.454 Y131 F30.00
(T: 131 L: 8)
G1 X1.163 Y132 F30.00
(T: 132 L: 8)
G1 X0.872 Y133 F30.00
(T: 133 L: 8)
G1 X0.582 Y134 F30.00
(T: 134 L: 8)
G1 X0.291 Y135 F30.00
(T: 135 L: 8)
G1 X-0.000 Y136 F30.00
(T: 136 L: 8)
G1 X0.291 Y137 F30.00
(T: 137 L: 9)
G1 X0.582 Y138 F30.00
(T: 138 L: 9)
G1 X0.872 Y139 F30.00
(T: 139 L: 9)
G1 X1.163 Y140 F30.00
(T: 140 L: 9)
G1 X1.454 Y141 F30.00
(T: 141 L: 9)
G1 X1.745 Y142 F30.00
(T: 142 L: 9)
G1 X2.036 Y143 F30.00
(T: 143 L: 9)
G1 X2.327 Y144 F30.00
(T: 144 L: 9)
G1 X2.617 Y145 F30.00
(T: 145 L: 9)
G1 X2.908 Y146 F30.00
(T: 146 L: 9)
G1 X3.199 Y147 F30.00
(T: 147 L: 9)
G1 X3.490 Y148 F30.00
(T: 148 L: 9)
G1 X3.781 Y149 F30.00
(T: 149 L: 9)
G1 X4.072 Y150 F30.00
(T: 150 L: 9)
G1 X4.362 Y151 F30.00
(T: 151 L: 9)
G1 X4.653 Y152 F30.00
(T: 152 L: 9)
G1 X4.944 Y153 F30.00
(T: 153 L: 9)
G1 X4.653 Y154 F30.00
(T: 154 L: 10)
G1 X4.362 Y155 F30.00
(T: 155 L: 10)
G1 X4.072 Y156 F30.00
(T: 156 L: 10)
G1 X3.781 Y157 F30.00
(T: 157 L: 10)
G1 X3.490 Y158 F30.00
(T: 158 L: 10)
G1 X3.199 Y159 F30.00
(T: 159 L: 10)
G1 X2.908 Y160 F30.00
(T: 160 L: 10)
G1 X2.617 Y161 F30.00
(T: 161 L: 10)
G1 X2.327 Y162 F30.00
(T: 162 L: 10)
G1 X2.036 Y163 F30.00
(T: 163 L: 10)
G1 X1.745 Y164 F30.00
(T: 164 L: 10)
G1 X1.454 Y165 F30.00
(T: 165 L: 10)
G1 X1.163 Y166 F30.00
(T: 166 L: 10)
G1 X0.872 Y167 F30.00
(T: 167 L: 10)
G1 X0.582 Y168 F30.00
(T: 168 L: 10)
G1 X0.291 Y169 F30.00
(T: 169 L: 10)
G1 X-0.000 Y170 F30.00
(T: 170 L: 10)
G1 X0.291 Y171 F30.00
(T: 171 L: 11)
G1 X0.582 Y172 F30.00
(T: 172 L: 11)
G1 X0.872 Y173 F30.00
(T: 173 L: 11)
G1 X1.163 Y174 F30.00
(T: 174 L: 11)
G1 X1.454 Y175 F30.00
(T: 175 L: 11)
G1 X1.745 Y176 F30.00
(T: 176 L: 11)
G1 X2.036 Y177 F30.00
(T: 177 L: 11)
G1 X2.327 Y178 F30.00
(T: 178 L: 11)
G1 X2.617 Y179 F30.00
(T: 179 L: 11)
G1 X2.908 Y180 F30.00
(T: 180 L: 11)
G1 X3.199 Y181 F30.00
(T: 181 L: 11)
G1 X3.490 Y182 F30.00
(T: 182 L: 11)
G1 X3.781 Y183 F30.00
(T: 183 L: 11)
G1 X4.072 Y184 F30.00
(T: 184 L: 11)
G1 X4.362 Y185 F30.00
(T: 185 L: 11)
G1 X4.653 Y186 F30.00
(T: 186 L: 11)
G1 X4.944 Y187 F30.00
(T: 187 L: 11)
G1 X4.653 Y188 F30.00
(T: 188 L: 12)
G1 X4.362 Y189 F30.00
(T: 189 L: 12)
G1 X4.072 Y190 F30.00
(T: 190 L: 12)
G1 X3.781 Y191 F30.00
(T: 191 L: 12)
G1 X3.490 Y192 F30.00
(T: 192 L: 12)
G1 X3.199 Y193 F30.00
(T: 193 L: 12)
G1 X2.908 Y194 F30.00
(T: 194 L: 12)
G1 X2.617 Y195 F30.00
(T: 195 L: 12)
G1 X2.327 Y196 F30.00
(T: 196 L: 12)
G1 X2.036 Y197 F30.00
(T: 197 L: 12)
G1 X1.745 Y198 F30.00
(T: 198 L: 12)
G1 X1.454 Y199 F30.00
(T: 199 L: 12)
G1 X1.163 Y200 F30.00
(T: 200 L: 12)
G1 X0.872 Y201 F30.00
(T: 201 L: 12)
G1 X0.582 Y202 F30.00
(T: 202 L: 12)
G1 X0.291 Y203 F30.00
(T: 203 L: 12)
G1 X-0.000 Y204 F30.00
(T: 204 L: 12)
G1 X0.291 Y205 F30.00
(T: 205 L: 13)
G1 X0.582 Y206 F30.00
(T: 206 L: 13)
G1 X0.872 Y207 F30.00
(T: 207 L: 13)
G1 X1.163 Y208 F30.00
(T: 208 L: 13)
G1 X1.454 Y209 F30.00
(T: 209 L: 13)
G1 X1.745 Y210 F30.00
(T: 210 L: 13)
G1 X2.036 Y211 F30.00
(T: 211 L: 13)
G1 X2.327 Y212 F30.00
(T: 212 L: 13)
G1 X2.617 Y213 F30.00
(T: 213 L: 13)
G1 X2.908 Y214 F30.00
(T: 214 L: 13)
G1 X3.199 Y215 F30.00
(T: 215 L: 13)
G1 X3.490 Y216 F30.00
(T: 216 L: 13)
G1 X3.781 Y217 F30.00
(T: 217 L: 13)
G1 X4.072 Y218 F30.00
(T: 218 L: 13)
G1 X4.362 Y219 F30.00
(T: 219 L: 13)
G1 X4.653 Y220 F30.00
(T: 220 L: 13)
G1 X4.944 Y221 F30.00
(T: 221 L: 13)
G1 X4.653 Y222 F30.00
(T: 222 L: 14)
G1 X4.362 Y223 F30.00
(T: 223 L: 14)
G1 X4.072 Y224 F30.00
(T: 224 L: 14)
G1 X3.781 Y225 F30.00
(T: 225 L: 14)
G1 X3.490 Y226 F30.00
(T: 226 L: 14)
G1 X3.199 Y227 F30.00
(T: 227 L: 14)
G1 X2.908 Y228 F30.00
(T: 228 L: 14)
G1 X2.617 Y229 F30.00
(T: 229 L: 14)
G1 X2.327 Y230 F30.00
(T: 230 L: 14)
G1 X2.036 Y231 F30.00
(T: 231 L: 14)
G1 X1.745 Y232 F30.00
(T: 232 L: 14)
G1 X1.454 Y233 F30.00
(T: 233 L: 14)
G1 X1.163 Y234 F30.00
(T: 234 L: 14)
G1 X0.872 Y235 F30.00
(T: 235 L: 14)
G1 X0.582 Y236 F30.00
(T: 236 L: 14)
G1 X0.291 Y237 F30.00
(T: 237 L: 14)
G1 X-0.000 Y238 F30.00
(T: 238 L: 14)
G1 X0.291 Y239 F30.00
(T: 239 L: 15)
G1 X0.582 Y240 F30.00
(T: 240 L: 15)
G1 X0.872 Y241 F30.00
(T: 241 L: 15)
G1 X1.163 Y242 F30.00
(T: 242 L: 15)
G1 X1.454 Y243 F30.00
(T: 243 L: 15)
G1 X1.745 Y244 F30.00
(T: 244 L: 15)
G1 X2.036 Y245 F30.00
(T: 245 L: 15)
G1 X2.327 Y246 F30.00
(T: 246 L: 15)
G1 X2.617 Y247 F30.00
(T: 247 L: 15)
G1 X2.908 Y248 F30.00
(T: 248 L: 15)
G1 X3.199 Y249 F30.00
(T: 249 L: 15)
G1 X3.490 Y250 F30.00
(T: 250 L: 15)
G1 X3.781 Y251 F30.00
(T: 251 L: 15)
G1 X4.072 Y252 F30.00
(T: 252 L: 15)
G1 X4.362 Y253 F30.00
(T: 253 L: 15)
G1 X4.653 Y254 F30.00
(T: 254 L: 15)
G1 X4.944 Y255 F30.00
(T: 255 L: 15)
G1 X4.653 Y256 F30.00
(T: 256 L: 16)
G1 X4.362 Y257 F30.00
(T: 257 L: 16)
G1 X4.072 Y258 F30.00
(T: 258 L: 16)
G1 X3.781 Y259 F30.00
(T: 259 L: 16)
G1 X3.490 Y260 F30.00
(T: 260 L: 16)
G1 X3.199 Y261 F30.00
(T: 261 L: 16)
G1 X2.908 Y262 F30.00
(T: 262 L: 16)
G1 X2.617 Y263 F30.00
(T: 263 L: 16)
G1 X2.327 Y264 F30.00
(T: 264 L: 16)
G1 X2.036 Y265 F30.00
(T: 265 L: 16)
G1 X1.745 Y266 F30.00
(T: 266 L: 16)
G1 X1.454 Y267 F30.00
(T: 267 L: 16)
G1 X1.163 Y268 F30.00
(T: 268 L: 16)
G1 X0.872 Y269 F30.00
(T: 269 L: 16)
G1 X0.582 Y270 F30.00
(T: 270 L: 16)
G1 X0.291 Y271 F30.00
(T: 271 L: 16)
G1 X-0.000 Y272 F30.00
(T: 272 L: 16)
G1 X0.291 Y273 F30.00
(T: 273 L: 17)
G1 X0.582 Y274 F30.00
(T: 274 L: 17)
G1 X0.872 Y275 F30.00
(T: 275 L: 17)
G1 X1.163 Y276 F30.00
(T: 276 L: 17)
G1 X1.454 Y277 F30.00
(T: 277 L: 17)
G1 X1.745 Y278 F30.00
(T: 278 L: 17)
G1 X2.036 Y279 F30.00
(T: 279 L: 17)
G1 X2.327 Y280 F30.00
(T: 280 L: 17)
G1 X2.617 Y281 F30.00
(T: 281 L: 17)
G1 X2.908 Y282 F30.00
(T: 282 L: 17)
G1 X3.199 Y283 F30.00
(T: 283 L: 17)
G1 X3.490 Y284 F30.00
(T: 284 L: 17)
G1 X3.781 Y285 F30.00
(T: 285 L: 17)
G1 X4.072 Y286 F30.00
(T: 286 L: 17)
G1 X4.362 Y287 F30.00
(T: 287 L: 17)
G1 X4.653 Y288 F30.00
(T: 288 L: 17)
G1 X4.944 Y289 F30.00
(T: 289 L: 17)
G1 X4.653 Y290 F30.00
(T: 290 L: 18)
G1 X4.362 Y291 F30.00
(T: 291 L: 18)
G1 X4.072 Y292 F30.00
(T: 292 L: 18)
G1 X3.781 Y293 F30.00
(T: 293 L: 18)
G1 X3.490 Y294 F30.00
(T: 294 L: 18)
G1 X3.199 Y295 F30.00
(T: 295 L: 18)
G1 X2.908 Y296 F30.00
(T: 296 L: 18)
G1 X2.617 Y297 F30.00
(T: 297 L: 18)
G1 X2.327 Y298 F30.00
(T: 298 L: 18)
G1 X2.036 Y299 F30.00
(T: 299 L: 18)
G1 X1.745 Y300 F30.00
(T: 300 L: 18)
G1 X1.454 Y301 F30.00
(T: 301 L: 18)
G1 X1.163 Y302 F30.00
(T: 302 L: 18)
G1 X0.872 Y303 F30.00
(T: 303 L: 18)
G1 X0.582 Y304 F30.00
(T: 304 L: 18)
G1 X0.291 Y305 F30.00
(T: 305 L: 18)
G1 X-0.000 Y306 F30.00
(T: 306 L: 18)
G1 X0.291 Y307 F30.00
(T: 307 L: 19)
G1 X0.582 Y308 F30.00
(T: 308 L: 19)
G1 X0.872 Y309 F30.00
(T: 309 L: 19)
G1 X1.163 Y310 F30.00
(T: 310 L: 19)
G1 X1.454 Y311 F30.00
(T: 311 L: 19)
G1 X1.745 Y312 F30.00
(T: 312 L: 19)
G1 X2.036 Y313 F30.00
(T: 313 L: 19)
G1 X2.327 Y314 F30.00
(T: 314 L: 19)
G1 X2.617 Y315 F30.00
(T: 315 L: 19)
G1 X2.908 Y316 F30.00
(T: 316 L: 19)
G1 X3.199 Y317 F30.00
(T: 317 L: 19)
G1 X3.490 Y318 F30.00
(T: 318 L: 19)
G1 X3.781 Y319 F30.00
(T: 319 L: 19)
G1 X4.072 Y320 F30.00
(T: 320 L: 19)
G1 X4.362 Y321 F30.00
(T: 321 L: 19)
G1 X4.653 Y322 F30.00
(T: 322 L: 19)
G1 X4.944 Y323 F30.00
(T: 323 L: 19)
G1 X4.653 Y324 F30.00
(T: 324 L: 20)
G1 X4.362 Y325 F30.00
(T: 325 L: 20)
G1 X4.072 Y326 F30.00
(T: 326 L: 20)
G1 X3.781 Y327 F30.00
(T: 327 L: 20)
G1 X3.490 Y328 F30.00
(T: 328 L: 20)
G1 X3.199 Y329 F30.00
(T: 329 L: 20)
G1 X2.908 Y330 F30.00
(T: 330 L: 20)
G1 X2.617 Y331 F30.00
(T: 331 L: 20)
G1 X2.327 Y332 F30.00
(T: 332 L: 20)
G1 X2.036 Y333 F30.00
(T: 333 L: 20)
G1 X1.745 Y334 F30.00
(T: 334 L: 20)
G1 X1.454 Y335 F30.00
(T: 335 L: 20)
G1 X1.163 Y336 F30.00
(T: 336 L: 20)
G1 X0.872 Y337 F30.00
(T: 337 L: 20)
G1 X0.582 Y338 F30.00
(T: 338 L: 20)
G1 X0.291 Y339 F30.00
(T: 339 L: 20)
G1 X-0.000 Y340 F30.00
(T: 340 L: 20)
G1 X0.291 Y341 F30.00
(T: 341 L: 21)
G1 X0.582 Y342 F30.00
(T: 342 L: 21)
G1 X0.872 Y343 F30.00
(T: 343 L: 21)
G1 X1.163 Y344 F30.00
(T: 344 L: 21)
G1 X1.454 Y345 F30.00
(T: 345 L: 21)
G1 X1.745 Y346 F30.00
(T: 346 L: 21)
G1 X2.036 Y347 F30.00
(T: 347 L: 21)
G1 X2.327 Y348 F30.00
(T: 348 L: 21)
G1 X2.617 Y349 F30.00
(T: 349 L: 21)
G1 X2.908 Y350 F30.00
(T: 350 L: 21)
G1 X3.199 Y351 F30.00
(T: 351 L: 21)
G1 X3.490 Y352 F30.00
(T: 352 L: 21)
G1 X3.781 Y353 F30.00
(T: 353 L: 21)
G1 X4.072 Y354 F30.00
(T: 354 L: 21)
G1 X4.362 Y355 F30.00
(T: 355 L: 21)
G1 X4.653 Y356 F30.00
(T: 356 L: 21)
G1 X4.944 Y357 F30.00
(T: 357 L: 21)
(Complete!)
