(Generated by coilgen.py)
(Coil winding process)
(Args: ./coilgen.py --diameter 0.55 --turns 99 --length 5 )
(Units: X mm, Y rotations)
(Feed rate RPM: 30.00)
(Coil Length: 4.95mm)
(Wire AWG: 24)
(Wire Diameter: 0.550mm)
(Total Windings: 99)
(Turns per layer: 9)
(Winding will start and stop at opposite ends.)
G21 (metric ftw)
G90 (absolute mode)
G92 X0 Y0 (zero all axes)
(T: 0 L: 2)
G1 X0.550 Y1 F30.00
(T: 1 L: 2)
G1 X1.100 Y2 F30.00
(T: 2 L: 2)
G1 X1.650 Y3 F30.00
(T: 3 L: 2)
G1 X2.200 Y4 F30.00
(T: 4 L: 2)
G1 X2.750 Y5 F30.00
(T: 5 L: 2)
G1 X3.300 Y6 F30.00
(T: 6 L: 2)
G1 X3.850 Y7 F30.00
(T: 7 L: 2)
G1 X4.400 Y8 F30.00
(T: 8 L: 2)
G1 X4.950 Y9 F30.00
(T: 9 L: 2)
G1 X5.500 Y10 F30.00
(T: 10 L: 3)
G1 X4.950 Y11 F30.00
(T: 11 L: 3)
G1 X4.400 Y12 F30.00
(T: 12 L: 3)
G1 X3.850 Y13 F30.00
(T: 13 L: 3)
G1 X3.300 Y14 F30.00
(T: 14 L: 3)
G1 X2.750 Y15 F30.00
(T: 15 L: 3)
G1 X2.200 Y16 F30.00
(T: 16 L: 3)
G1 X1.650 Y17 F30.00
(T: 17 L: 3)
G1 X1.100 Y18 F30.00
(T: 18 L: 3)
G1 X0.550 Y19 F30.00
(T: 19 L: 3)
G1 X0.000 Y20 F30.00
(T: 20 L: 4)
G1 X0.550 Y21 F30.00
(T: 21 L: 4)
G1 X1.100 Y22 F30.00
(T: 22 L: 4)
G1 X1.650 Y23 F30.00
(T: 23 L: 4)
G1 X2.200 Y24 F30.00
(T: 24 L: 4)
G1 X2.750 Y25 F30.00
(T: 25 L: 4)
G1 X3.300 Y26 F30.00
(T: 26 L: 4)
G1 X3.850 Y27 F30.00
(T: 27 L: 4)
G1 X4.400 Y28 F30.00
(T: 28 L: 4)
G1 X4.950 Y29 F30.00
(T: 29 L: 4)
G1 X5.500 Y30 F30.00
(T: 30 L: 5)
G1 X4.950 Y31 F30.00
(T: 31 L: 5)
G1 X4.400 Y32 F30.00
(T: 32 L: 5)
G1 X3.850 Y33 F30.00
(T: 33 L: 5)
G1 X3.300 Y34 F30.00
(T: 34 L: 5)
G1 X2.750 Y35 F30.00
(T: 35 L: 5)
G1 X2.200 Y36 F30.00
(T: 36 L: 5)
G1 X1.650 Y37 F30.00
(T: 37 L: 5)
G1 X1.100 Y38 F30.00
(T: 38 L: 5)
G1 X0.550 Y39 F30.00
(T: 39 L: 5)
G1 X0.000 Y40 F30.00
(T: 40 L: 6)
G1 X0.550 Y41 F30.00
(T: 41 L: 6)
G1 X1.100 Y42 F30.00
(T: 42 L: 6)
G1 X1.650 Y43 F30.00
(T: 43 L: 6)
G1 X2.200 Y44 F30.00
(T: 44 L: 6)
G1 X2.750 Y45 F30.00
(T: 45 L: 6)
G1 X3.300 Y46 F30.00
(T: 46 L: 6)
G1 X3.850 Y47 F30.00
(T: 47 L: 6)
G1 X4.400 Y48 F30.00
(T: 48 L: 6)
G1 X4.950 Y49 F30.00
(T: 49 L: 6)
G1 X5.500 Y50 F30.00
(T: 50 L: 7)
G1 X4.950 Y51 F30.00
(T: 51 L: 7)
G1 X4.400 Y52 F30.00
(T: 52 L: 7)
G1 X3.850 Y53 F30.00
(T: 53 L: 7)
G1 X3.300 Y54 F30.00
(T: 54 L: 7)
G1 X2.750 Y55 F30.00
(T: 55 L: 7)
G1 X2.200 Y56 F30.00
(T: 56 L: 7)
G1 X1.650 Y57 F30.00
(T: 57 L: 7)
G1 X1.100 Y58 F30.00
(T: 58 L: 7)
G1 X0.550 Y59 F30.00
(T: 59 L: 7)
G1 X0.000 Y60 F30.00
(T: 60 L: 8)
G1 X0.550 Y61 F30.00
(T: 61 L: 8)
G1 X1.100 Y62 F30.00
(T: 62 L: 8)
G1 X1.650 Y63 F30.00
(T: 63 L: 8)
G1 X2.200 Y64 F30.00
(T: 64 L: 8)
G1 X2.750 Y65 F30.00
(T: 65 L: 8)
G1 X3.300 Y66 F30.00
(T: 66 L: 8)
G1 X3.850 Y67 F30.00
(T: 67 L: 8)
G1 X4.400 Y68 F30.00
(T: 68 L: 8)
G1 X4.950 Y69 F30.00
(T: 69 L: 8)
G1 X5.500 Y70 F30.00
(T: 70 L: 9)
G1 X4.950 Y71 F30.00
(T: 71 L: 9)
G1 X4.400 Y72 F30.00
(T: 72 L: 9)
G1 X3.850 Y73 F30.00
(T: 73 L: 9)
G1 X3.300 Y74 F30.00
(T: 74 L: 9)
G1 X2.750 Y75 F30.00
(T: 75 L: 9)
G1 X2.200 Y76 F30.00
(T: 76 L: 9)
G1 X1.650 Y77 F30.00
(T: 77 L: 9)
G1 X1.100 Y78 F30.00
(T: 78 L: 9)
G1 X0.550 Y79 F30.00
(T: 79 L: 9)
G1 X0.000 Y80 F30.00
(T: 80 L: 10)
G1 X0.550 Y81 F30.00
(T: 81 L: 10)
G1 X1.100 Y82 F30.00
(T: 82 L: 10)
G1 X1.650 Y83 F30.00
(T: 83 L: 10)
G1 X2.200 Y84 F30.00
(T: 84 L: 10)
G1 X2.750 Y85 F30.00
(T: 85 L: 10)
G1 X3.300 Y86 F30.00
(T: 86 L: 10)
G1 X3.850 Y87 F30.00
(T: 87 L: 10)
G1 X4.400 Y88 F30.00
(T: 88 L: 10)
G1 X4.950 Y89 F30.00
(T: 89 L: 10)
G1 X5.500 Y90 F30.00
(T: 90 L: 11)
G1 X4.950 Y91 F30.00
(T: 91 L: 11)
G1 X4.400 Y92 F30.00
(T: 92 L: 11)
G1 X3.850 Y93 F30.00
(T: 93 L: 11)
G1 X3.300 Y94 F30.00
(T: 94 L: 11)
G1 X2.750 Y95 F30.00
(T: 95 L: 11)
G1 X2.200 Y96 F30.00
(T: 96 L: 11)
G1 X1.650 Y97 F30.00
(T: 97 L: 11)
G1 X1.100 Y98 F30.00
(T: 98 L: 11)
G1 X0.550 Y99 F30.00
M18 (drives off)
M127
