(Generated by coilgen.py)
(Coil winding process)
(Args: ./coilgen.py --awg 24 --idiam 4 --length 5 --turns 36 )
(Units: X mm, Y rotations)
(Feed rate RPM: 30.00)
(Coil Length: 4.48mm)
(Wire AWG: 24)
(Wire Wdiam: 0.560mm)
(Total Windings: 36)
(Turns per layer: 8)
(Layers: 5)
(Coil internal diameter 4.000mm)
(Coil external diameter 9.601mm)
(Warning: winding will stop in the middle of the coil.)
(Smaller: 32, 4 layers, start/stop on same end.)
(Larger: 40, 5 layers, start/stop on oppposite ends.)
G21 (metric ftw)
G90 (absolute mode)
G92 X0 Y0 (zero all axes)
G1 X0.560 Y1 F30.00
(T: 1 L: 1)
G1 X1.120 Y2 F30.00
(T: 2 L: 1)
G1 X1.680 Y3 F30.00
(T: 3 L: 1)
G1 X2.240 Y4 F30.00
(T: 4 L: 1)
G1 X2.800 Y5 F30.00
(T: 5 L: 1)
G1 X3.360 Y6 F30.00
(T: 6 L: 1)
G1 X3.920 Y7 F30.00
(T: 7 L: 1)
G1 X4.481 Y8 F30.00
(T: 8 L: 1)
G1 X3.920 Y9 F30.00
(T: 9 L: 2)
G1 X3.360 Y10 F30.00
(T: 10 L: 2)
G1 X2.800 Y11 F30.00
(T: 11 L: 2)
G1 X2.240 Y12 F30.00
(T: 12 L: 2)
G1 X1.680 Y13 F30.00
(T: 13 L: 2)
G1 X1.120 Y14 F30.00
(T: 14 L: 2)
G1 X0.560 Y15 F30.00
(T: 15 L: 2)
G1 X-0.000 Y16 F30.00
(T: 16 L: 2)
G1 X0.560 Y17 F30.00
(T: 17 L: 3)
G1 X1.120 Y18 F30.00
(T: 18 L: 3)
G1 X1.680 Y19 F30.00
(T: 19 L: 3)
G1 X2.240 Y20 F30.00
(T: 20 L: 3)
G1 X2.800 Y21 F30.00
(T: 21 L: 3)
G1 X3.360 Y22 F30.00
(T: 22 L: 3)
G1 X3.920 Y23 F30.00
(T: 23 L: 3)
G1 X4.481 Y24 F30.00
(T: 24 L: 3)
G1 X3.920 Y25 F30.00
(T: 25 L: 4)
G1 X3.360 Y26 F30.00
(T: 26 L: 4)
G1 X2.800 Y27 F30.00
(T: 27 L: 4)
G1 X2.240 Y28 F30.00
(T: 28 L: 4)
G1 X1.680 Y29 F30.00
(T: 29 L: 4)
G1 X1.120 Y30 F30.00
(T: 30 L: 4)
G1 X0.560 Y31 F30.00
(T: 31 L: 4)
G1 X-0.000 Y32 F30.00
(T: 32 L: 4)
G1 X0.560 Y33 F30.00
(T: 33 L: 5)
G1 X1.120 Y34 F30.00
(T: 34 L: 5)
G1 X1.680 Y35 F30.00
(T: 35 L: 5)
G1 X2.240 Y36 F30.00
(T: 36 L: 5)
(Complete!)
