(Generated by coilgen.py)
(Coil winding process)
(Args: ./coilgen.py --awg 24 --turns 53 --length 4 --rpm 100 )
(Units: X mm, Y rotations)
(Feed rate RPM: 100.00)
(Coil Length: 3.92mm)
(Wire AWG: 24)
(Wire Wdiam: 0.560mm)
(Total Windings: 53)
(Turns per layer: 7)
(Layers: 8)
(Coil internal diameter 5.000mm)
(Coil external diameter 13.961mm)
(Warning: winding will stop in the middle of the coil.)
(Smaller: 49, 7 layers, start/stop on opposite ends.)
(Larger: 56, 8 layers, start/stop on same end.)
G21 (metric ftw)
G90 (absolute mode)
G92 X0 Y0 (zero all axes)
(T: 1 L: 1)
G1 X0.000 Y0.800 F100.00
G1 X0.560 Y1.000 F134.52
(T: 2 L: 1)
G1 X0.560 Y1.800 F100.00
G1 X1.120 Y2.000 F134.52
(T: 3 L: 1)
G1 X1.120 Y2.800 F100.00
G1 X1.680 Y3.000 F134.52
(T: 4 L: 1)
G1 X1.680 Y3.800 F100.00
G1 X2.240 Y4.000 F134.52
(T: 5 L: 1)
G1 X2.240 Y4.800 F100.00
G1 X2.800 Y5.000 F134.52
(T: 6 L: 1)
G1 X2.800 Y5.800 F100.00
G1 X3.360 Y6.000 F134.52
(T: 7 L: 1)
G1 X3.360 Y6.800 F100.00
G1 X3.360 Y7.000 F134.52
M0 (pause)
(T: 8 L: 2)
G1 X3.360 Y7.800 F100.00
G1 X2.800 Y8.000 F134.52
(T: 9 L: 2)
G1 X2.800 Y8.800 F100.00
G1 X2.240 Y9.000 F134.52
(T: 10 L: 2)
G1 X2.240 Y9.800 F100.00
G1 X1.680 Y10.000 F134.52
(T: 11 L: 2)
G1 X1.680 Y10.800 F100.00
G1 X1.120 Y11.000 F134.52
(T: 12 L: 2)
G1 X1.120 Y11.800 F100.00
G1 X0.560 Y12.000 F134.52
(T: 13 L: 2)
G1 X0.560 Y12.800 F100.00
G1 X-0.000 Y13.000 F134.52
(T: 14 L: 2)
G1 X-0.000 Y13.800 F100.00
G1 X-0.000 Y14.000 F134.52
M0 (pause)
(T: 15 L: 3)
G1 X-0.000 Y14.800 F100.00
G1 X0.560 Y15.000 F134.52
(T: 16 L: 3)
G1 X0.560 Y15.800 F100.00
G1 X1.120 Y16.000 F134.52
(T: 17 L: 3)
G1 X1.120 Y16.800 F100.00
G1 X1.680 Y17.000 F134.52
(T: 18 L: 3)
G1 X1.680 Y17.800 F100.00
G1 X2.240 Y18.000 F134.52
(T: 19 L: 3)
G1 X2.240 Y18.800 F100.00
G1 X2.800 Y19.000 F134.52
(T: 20 L: 3)
G1 X2.800 Y19.800 F100.00
G1 X3.360 Y20.000 F134.52
(T: 21 L: 3)
G1 X3.360 Y20.800 F100.00
G1 X3.360 Y21.000 F134.52
M0 (pause)
(T: 22 L: 4)
G1 X3.360 Y21.800 F100.00
G1 X2.800 Y22.000 F134.52
(T: 23 L: 4)
G1 X2.800 Y22.800 F100.00
G1 X2.240 Y23.000 F134.52
(T: 24 L: 4)
G1 X2.240 Y23.800 F100.00
G1 X1.680 Y24.000 F134.52
(T: 25 L: 4)
G1 X1.680 Y24.800 F100.00
G1 X1.120 Y25.000 F134.52
(T: 26 L: 4)
G1 X1.120 Y25.800 F100.00
G1 X0.560 Y26.000 F134.52
(T: 27 L: 4)
G1 X0.560 Y26.800 F100.00
G1 X-0.000 Y27.000 F134.52
(T: 28 L: 4)
G1 X-0.000 Y27.800 F100.00
G1 X-0.000 Y28.000 F134.52
M0 (pause)
(T: 29 L: 5)
G1 X-0.000 Y28.800 F100.00
G1 X0.560 Y29.000 F134.52
(T: 30 L: 5)
G1 X0.560 Y29.800 F100.00
G1 X1.120 Y30.000 F134.52
(T: 31 L: 5)
G1 X1.120 Y30.800 F100.00
G1 X1.680 Y31.000 F134.52
(T: 32 L: 5)
G1 X1.680 Y31.800 F100.00
G1 X2.240 Y32.000 F134.52
(T: 33 L: 5)
G1 X2.240 Y32.800 F100.00
G1 X2.800 Y33.000 F134.52
(T: 34 L: 5)
G1 X2.800 Y33.800 F100.00
G1 X3.360 Y34.000 F134.52
(T: 35 L: 5)
G1 X3.360 Y34.800 F100.00
G1 X3.360 Y35.000 F134.52
M0 (pause)
(T: 36 L: 6)
G1 X3.360 Y35.800 F100.00
G1 X2.800 Y36.000 F134.52
(T: 37 L: 6)
G1 X2.800 Y36.800 F100.00
G1 X2.240 Y37.000 F134.52
(T: 38 L: 6)
G1 X2.240 Y37.800 F100.00
G1 X1.680 Y38.000 F134.52
(T: 39 L: 6)
G1 X1.680 Y38.800 F100.00
G1 X1.120 Y39.000 F134.52
(T: 40 L: 6)
G1 X1.120 Y39.800 F100.00
G1 X0.560 Y40.000 F134.52
(T: 41 L: 6)
G1 X0.560 Y40.800 F100.00
G1 X-0.000 Y41.000 F134.52
(T: 42 L: 6)
G1 X-0.000 Y41.800 F100.00
G1 X-0.000 Y42.000 F134.52
M0 (pause)
(T: 43 L: 7)
G1 X-0.000 Y42.800 F100.00
G1 X0.560 Y43.000 F134.52
(T: 44 L: 7)
G1 X0.560 Y43.800 F100.00
G1 X1.120 Y44.000 F134.52
(T: 45 L: 7)
G1 X1.120 Y44.800 F100.00
G1 X1.680 Y45.000 F134.52
(T: 46 L: 7)
G1 X1.680 Y45.800 F100.00
G1 X2.240 Y46.000 F134.52
(T: 47 L: 7)
G1 X2.240 Y46.800 F100.00
G1 X2.800 Y47.000 F134.52
(T: 48 L: 7)
G1 X2.800 Y47.800 F100.00
G1 X3.360 Y48.000 F134.52
(T: 49 L: 7)
G1 X3.360 Y48.800 F100.00
G1 X3.360 Y49.000 F134.52
M0 (pause)
(T: 50 L: 8)
G1 X3.360 Y49.800 F100.00
G1 X2.800 Y50.000 F134.52
(T: 51 L: 8)
G1 X2.800 Y50.800 F100.00
G1 X2.240 Y51.000 F134.52
(T: 52 L: 8)
G1 X2.240 Y51.800 F100.00
G1 X1.680 Y52.000 F134.52
(T: 53 L: 8)
G1 X1.680 Y52.800 F100.00
G1 X1.120 Y53.000 F134.52
(Complete!)
