(Generated by coilgen.py)
(Coil winding process)
(Args: ./coilgen.py --awg 24 --turns 530 --length 30 --rpm 100 )
(Units: X mm, Y rotations)
(Feed rate RPM: 100.00)
(Coil Length: 29.68mm)
(Wire AWG: 24)
(Wire Wdiam: 0.560mm)
(Total Windings: 530)
(Turns per layer: 53)
(Layers: 10)
(Coil internal diameter 5.000mm)
(Coil external diameter 16.201mm)
(Winding will start and stop at same end.)
G21 (metric ftw)
G90 (absolute mode)
G92 X0 Y0 (zero all axes)
(T: 1 L: 1)
G1 X0.000 Y0.800 F10.00
G1 X0.560 Y1.000 F13.45
(T: 2 L: 1)
G1 X0.560 Y1.800 F100.00
G1 X1.120 Y2.000 F134.52
(T: 3 L: 1)
G1 X1.120 Y2.800 F100.00
G1 X1.680 Y3.000 F134.52
(T: 4 L: 1)
G1 X1.680 Y3.800 F100.00
G1 X2.240 Y4.000 F134.52
(T: 5 L: 1)
G1 X2.240 Y4.800 F100.00
G1 X2.800 Y5.000 F134.52
(T: 6 L: 1)
G1 X2.800 Y5.800 F100.00
G1 X3.360 Y6.000 F134.52
(T: 7 L: 1)
G1 X3.360 Y6.800 F100.00
G1 X3.920 Y7.000 F134.52
(T: 8 L: 1)
G1 X3.920 Y7.800 F100.00
G1 X4.481 Y8.000 F134.52
(T: 9 L: 1)
G1 X4.481 Y8.800 F100.00
G1 X5.041 Y9.000 F134.52
(T: 10 L: 1)
G1 X5.041 Y9.800 F100.00
G1 X5.601 Y10.000 F134.52
(T: 11 L: 1)
G1 X5.601 Y10.800 F100.00
G1 X6.161 Y11.000 F134.52
(T: 12 L: 1)
G1 X6.161 Y11.800 F100.00
G1 X6.721 Y12.000 F134.52
(T: 13 L: 1)
G1 X6.721 Y12.800 F100.00
G1 X7.281 Y13.000 F134.52
(T: 14 L: 1)
G1 X7.281 Y13.800 F100.00
G1 X7.841 Y14.000 F134.52
(T: 15 L: 1)
G1 X7.841 Y14.800 F100.00
G1 X8.401 Y15.000 F134.52
(T: 16 L: 1)
G1 X8.401 Y15.800 F100.00
G1 X8.961 Y16.000 F134.52
(T: 17 L: 1)
G1 X8.961 Y16.800 F100.00
G1 X9.521 Y17.000 F134.52
(T: 18 L: 1)
G1 X9.521 Y17.800 F100.00
G1 X10.081 Y18.000 F134.52
(T: 19 L: 1)
G1 X10.081 Y18.800 F100.00
G1 X10.641 Y19.000 F134.52
(T: 20 L: 1)
G1 X10.641 Y19.800 F100.00
G1 X11.201 Y20.000 F134.52
(T: 21 L: 1)
G1 X11.201 Y20.800 F100.00
G1 X11.761 Y21.000 F134.52
(T: 22 L: 1)
G1 X11.761 Y21.800 F100.00
G1 X12.322 Y22.000 F134.52
(T: 23 L: 1)
G1 X12.322 Y22.800 F100.00
G1 X12.882 Y23.000 F134.52
(T: 24 L: 1)
G1 X12.882 Y23.800 F100.00
G1 X13.442 Y24.000 F134.52
(T: 25 L: 1)
G1 X13.442 Y24.800 F100.00
G1 X14.002 Y25.000 F134.52
(T: 26 L: 1)
G1 X14.002 Y25.800 F100.00
G1 X14.562 Y26.000 F134.52
(T: 27 L: 1)
G1 X14.562 Y26.800 F100.00
G1 X15.122 Y27.000 F134.52
(T: 28 L: 1)
G1 X15.122 Y27.800 F100.00
G1 X15.682 Y28.000 F134.52
(T: 29 L: 1)
G1 X15.682 Y28.800 F100.00
G1 X16.242 Y29.000 F134.52
(T: 30 L: 1)
G1 X16.242 Y29.800 F100.00
G1 X16.802 Y30.000 F134.52
(T: 31 L: 1)
G1 X16.802 Y30.800 F100.00
G1 X17.362 Y31.000 F134.52
(T: 32 L: 1)
G1 X17.362 Y31.800 F100.00
G1 X17.922 Y32.000 F134.52
(T: 33 L: 1)
G1 X17.922 Y32.800 F100.00
G1 X18.482 Y33.000 F134.52
(T: 34 L: 1)
G1 X18.482 Y33.800 F100.00
G1 X19.042 Y34.000 F134.52
(T: 35 L: 1)
G1 X19.042 Y34.800 F100.00
G1 X19.602 Y35.000 F134.52
(T: 36 L: 1)
G1 X19.602 Y35.800 F100.00
G1 X20.163 Y36.000 F134.52
(T: 37 L: 1)
G1 X20.163 Y36.800 F100.00
G1 X20.723 Y37.000 F134.52
(T: 38 L: 1)
G1 X20.723 Y37.800 F100.00
G1 X21.283 Y38.000 F134.52
(T: 39 L: 1)
G1 X21.283 Y38.800 F100.00
G1 X21.843 Y39.000 F134.52
(T: 40 L: 1)
G1 X21.843 Y39.800 F100.00
G1 X22.403 Y40.000 F134.52
(T: 41 L: 1)
G1 X22.403 Y40.800 F100.00
G1 X22.963 Y41.000 F134.52
(T: 42 L: 1)
G1 X22.963 Y41.800 F100.00
G1 X23.523 Y42.000 F134.52
(T: 43 L: 1)
G1 X23.523 Y42.800 F100.00
G1 X24.083 Y43.000 F134.52
(T: 44 L: 1)
G1 X24.083 Y43.800 F100.00
G1 X24.643 Y44.000 F134.52
(T: 45 L: 1)
G1 X24.643 Y44.800 F100.00
G1 X25.203 Y45.000 F134.52
(T: 46 L: 1)
G1 X25.203 Y45.800 F100.00
G1 X25.763 Y46.000 F134.52
(T: 47 L: 1)
G1 X25.763 Y46.800 F100.00
G1 X26.323 Y47.000 F134.52
(T: 48 L: 1)
G1 X26.323 Y47.800 F100.00
G1 X26.883 Y48.000 F134.52
(T: 49 L: 1)
G1 X26.883 Y48.800 F100.00
G1 X27.443 Y49.000 F134.52
(T: 50 L: 1)
G1 X27.443 Y49.800 F100.00
G1 X28.003 Y50.000 F134.52
(T: 51 L: 1)
G1 X28.003 Y50.800 F100.00
G1 X28.564 Y51.000 F134.52
(T: 52 L: 1)
G1 X28.564 Y51.800 F100.00
G1 X29.124 Y52.000 F134.52
(T: 53 L: 1)
G1 X29.124 Y52.800 F10.00
G1 X29.124 Y53.000 F10.00
M0 (pause)
(T: 54 L: 2)
G1 X29.124 Y53.800 F10.00
G1 X28.564 Y54.000 F13.45
(T: 55 L: 2)
G1 X28.564 Y54.800 F100.00
G1 X28.003 Y55.000 F134.52
(T: 56 L: 2)
G1 X28.003 Y55.800 F100.00
G1 X27.443 Y56.000 F134.52
(T: 57 L: 2)
G1 X27.443 Y56.800 F100.00
G1 X26.883 Y57.000 F134.52
(T: 58 L: 2)
G1 X26.883 Y57.800 F100.00
G1 X26.323 Y58.000 F134.52
(T: 59 L: 2)
G1 X26.323 Y58.800 F100.00
G1 X25.763 Y59.000 F134.52
(T: 60 L: 2)
G1 X25.763 Y59.800 F100.00
G1 X25.203 Y60.000 F134.52
(T: 61 L: 2)
G1 X25.203 Y60.800 F100.00
G1 X24.643 Y61.000 F134.52
(T: 62 L: 2)
G1 X24.643 Y61.800 F100.00
G1 X24.083 Y62.000 F134.52
(T: 63 L: 2)
G1 X24.083 Y62.800 F100.00
G1 X23.523 Y63.000 F134.52
(T: 64 L: 2)
G1 X23.523 Y63.800 F100.00
G1 X22.963 Y64.000 F134.52
(T: 65 L: 2)
G1 X22.963 Y64.800 F100.00
G1 X22.403 Y65.000 F134.52
(T: 66 L: 2)
G1 X22.403 Y65.800 F100.00
G1 X21.843 Y66.000 F134.52
(T: 67 L: 2)
G1 X21.843 Y66.800 F100.00
G1 X21.283 Y67.000 F134.52
(T: 68 L: 2)
G1 X21.283 Y67.800 F100.00
G1 X20.723 Y68.000 F134.52
(T: 69 L: 2)
G1 X20.723 Y68.800 F100.00
G1 X20.163 Y69.000 F134.52
(T: 70 L: 2)
G1 X20.163 Y69.800 F100.00
G1 X19.602 Y70.000 F134.52
(T: 71 L: 2)
G1 X19.602 Y70.800 F100.00
G1 X19.042 Y71.000 F134.52
(T: 72 L: 2)
G1 X19.042 Y71.800 F100.00
G1 X18.482 Y72.000 F134.52
(T: 73 L: 2)
G1 X18.482 Y72.800 F100.00
G1 X17.922 Y73.000 F134.52
(T: 74 L: 2)
G1 X17.922 Y73.800 F100.00
G1 X17.362 Y74.000 F134.52
(T: 75 L: 2)
G1 X17.362 Y74.800 F100.00
G1 X16.802 Y75.000 F134.52
(T: 76 L: 2)
G1 X16.802 Y75.800 F100.00
G1 X16.242 Y76.000 F134.52
(T: 77 L: 2)
G1 X16.242 Y76.800 F100.00
G1 X15.682 Y77.000 F134.52
(T: 78 L: 2)
G1 X15.682 Y77.800 F100.00
G1 X15.122 Y78.000 F134.52
(T: 79 L: 2)
G1 X15.122 Y78.800 F100.00
G1 X14.562 Y79.000 F134.52
(T: 80 L: 2)
G1 X14.562 Y79.800 F100.00
G1 X14.002 Y80.000 F134.52
(T: 81 L: 2)
G1 X14.002 Y80.800 F100.00
G1 X13.442 Y81.000 F134.52
(T: 82 L: 2)
G1 X13.442 Y81.800 F100.00
G1 X12.882 Y82.000 F134.52
(T: 83 L: 2)
G1 X12.882 Y82.800 F100.00
G1 X12.322 Y83.000 F134.52
(T: 84 L: 2)
G1 X12.322 Y83.800 F100.00
G1 X11.761 Y84.000 F134.52
(T: 85 L: 2)
G1 X11.761 Y84.800 F100.00
G1 X11.201 Y85.000 F134.52
(T: 86 L: 2)
G1 X11.201 Y85.800 F100.00
G1 X10.641 Y86.000 F134.52
(T: 87 L: 2)
G1 X10.641 Y86.800 F100.00
G1 X10.081 Y87.000 F134.52
(T: 88 L: 2)
G1 X10.081 Y87.800 F100.00
G1 X9.521 Y88.000 F134.52
(T: 89 L: 2)
G1 X9.521 Y88.800 F100.00
G1 X8.961 Y89.000 F134.52
(T: 90 L: 2)
G1 X8.961 Y89.800 F100.00
G1 X8.401 Y90.000 F134.52
(T: 91 L: 2)
G1 X8.401 Y90.800 F100.00
G1 X7.841 Y91.000 F134.52
(T: 92 L: 2)
G1 X7.841 Y91.800 F100.00
G1 X7.281 Y92.000 F134.52
(T: 93 L: 2)
G1 X7.281 Y92.800 F100.00
G1 X6.721 Y93.000 F134.52
(T: 94 L: 2)
G1 X6.721 Y93.800 F100.00
G1 X6.161 Y94.000 F134.52
(T: 95 L: 2)
G1 X6.161 Y94.800 F100.00
G1 X5.601 Y95.000 F134.52
(T: 96 L: 2)
G1 X5.601 Y95.800 F100.00
G1 X5.041 Y96.000 F134.52
(T: 97 L: 2)
G1 X5.041 Y96.800 F100.00
G1 X4.481 Y97.000 F134.52
(T: 98 L: 2)
G1 X4.481 Y97.800 F100.00
G1 X3.920 Y98.000 F134.52
(T: 99 L: 2)
G1 X3.920 Y98.800 F100.00
G1 X3.360 Y99.000 F134.52
(T: 100 L: 2)
G1 X3.360 Y99.800 F100.00
G1 X2.800 Y100.000 F134.52
(T: 101 L: 2)
G1 X2.800 Y100.800 F100.00
G1 X2.240 Y101.000 F134.52
(T: 102 L: 2)
G1 X2.240 Y101.800 F100.00
G1 X1.680 Y102.000 F134.52
(T: 103 L: 2)
G1 X1.680 Y102.800 F100.00
G1 X1.120 Y103.000 F134.52
(T: 104 L: 2)
G1 X1.120 Y103.800 F100.00
G1 X0.560 Y104.000 F134.52
(T: 105 L: 2)
G1 X0.560 Y104.800 F100.00
G1 X0.000 Y105.000 F134.52
(T: 106 L: 2)
G1 X0.000 Y105.800 F10.00
G1 X0.000 Y106.000 F10.00
(T: 107 L: 3)
G1 X0.000 Y106.800 F10.00
G1 X0.560 Y107.000 F13.45
(T: 108 L: 3)
G1 X0.560 Y107.800 F100.00
G1 X1.120 Y108.000 F134.52
(T: 109 L: 3)
G1 X1.120 Y108.800 F100.00
G1 X1.680 Y109.000 F134.52
(T: 110 L: 3)
G1 X1.680 Y109.800 F100.00
G1 X2.240 Y110.000 F134.52
(T: 111 L: 3)
G1 X2.240 Y110.800 F100.00
G1 X2.800 Y111.000 F134.52
(T: 112 L: 3)
G1 X2.800 Y111.800 F100.00
G1 X3.360 Y112.000 F134.52
(T: 113 L: 3)
G1 X3.360 Y112.800 F100.00
G1 X3.920 Y113.000 F134.52
(T: 114 L: 3)
G1 X3.920 Y113.800 F100.00
G1 X4.481 Y114.000 F134.52
(T: 115 L: 3)
G1 X4.481 Y114.800 F100.00
G1 X5.041 Y115.000 F134.52
(T: 116 L: 3)
G1 X5.041 Y115.800 F100.00
G1 X5.601 Y116.000 F134.52
(T: 117 L: 3)
G1 X5.601 Y116.800 F100.00
G1 X6.161 Y117.000 F134.52
(T: 118 L: 3)
G1 X6.161 Y117.800 F100.00
G1 X6.721 Y118.000 F134.52
(T: 119 L: 3)
G1 X6.721 Y118.800 F100.00
G1 X7.281 Y119.000 F134.52
(T: 120 L: 3)
G1 X7.281 Y119.800 F100.00
G1 X7.841 Y120.000 F134.52
(T: 121 L: 3)
G1 X7.841 Y120.800 F100.00
G1 X8.401 Y121.000 F134.52
(T: 122 L: 3)
G1 X8.401 Y121.800 F100.00
G1 X8.961 Y122.000 F134.52
(T: 123 L: 3)
G1 X8.961 Y122.800 F100.00
G1 X9.521 Y123.000 F134.52
(T: 124 L: 3)
G1 X9.521 Y123.800 F100.00
G1 X10.081 Y124.000 F134.52
(T: 125 L: 3)
G1 X10.081 Y124.800 F100.00
G1 X10.641 Y125.000 F134.52
(T: 126 L: 3)
G1 X10.641 Y125.800 F100.00
G1 X11.201 Y126.000 F134.52
(T: 127 L: 3)
G1 X11.201 Y126.800 F100.00
G1 X11.761 Y127.000 F134.52
(T: 128 L: 3)
G1 X11.761 Y127.800 F100.00
G1 X12.322 Y128.000 F134.52
(T: 129 L: 3)
G1 X12.322 Y128.800 F100.00
G1 X12.882 Y129.000 F134.52
(T: 130 L: 3)
G1 X12.882 Y129.800 F100.00
G1 X13.442 Y130.000 F134.52
(T: 131 L: 3)
G1 X13.442 Y130.800 F100.00
G1 X14.002 Y131.000 F134.52
(T: 132 L: 3)
G1 X14.002 Y131.800 F100.00
G1 X14.562 Y132.000 F134.52
(T: 133 L: 3)
G1 X14.562 Y132.800 F100.00
G1 X15.122 Y133.000 F134.52
(T: 134 L: 3)
G1 X15.122 Y133.800 F100.00
G1 X15.682 Y134.000 F134.52
(T: 135 L: 3)
G1 X15.682 Y134.800 F100.00
G1 X16.242 Y135.000 F134.52
(T: 136 L: 3)
G1 X16.242 Y135.800 F100.00
G1 X16.802 Y136.000 F134.52
(T: 137 L: 3)
G1 X16.802 Y136.800 F100.00
G1 X17.362 Y137.000 F134.52
(T: 138 L: 3)
G1 X17.362 Y137.800 F100.00
G1 X17.922 Y138.000 F134.52
(T: 139 L: 3)
G1 X17.922 Y138.800 F100.00
G1 X18.482 Y139.000 F134.52
(T: 140 L: 3)
G1 X18.482 Y139.800 F100.00
G1 X19.042 Y140.000 F134.52
(T: 141 L: 3)
G1 X19.042 Y140.800 F100.00
G1 X19.602 Y141.000 F134.52
(T: 142 L: 3)
G1 X19.602 Y141.800 F100.00
G1 X20.163 Y142.000 F134.52
(T: 143 L: 3)
G1 X20.163 Y142.800 F100.00
G1 X20.723 Y143.000 F134.52
(T: 144 L: 3)
G1 X20.723 Y143.800 F100.00
G1 X21.283 Y144.000 F134.52
(T: 145 L: 3)
G1 X21.283 Y144.800 F100.00
G1 X21.843 Y145.000 F134.52
(T: 146 L: 3)
G1 X21.843 Y145.800 F100.00
G1 X22.403 Y146.000 F134.52
(T: 147 L: 3)
G1 X22.403 Y146.800 F100.00
G1 X22.963 Y147.000 F134.52
(T: 148 L: 3)
G1 X22.963 Y147.800 F100.00
G1 X23.523 Y148.000 F134.52
(T: 149 L: 3)
G1 X23.523 Y148.800 F100.00
G1 X24.083 Y149.000 F134.52
(T: 150 L: 3)
G1 X24.083 Y149.800 F100.00
G1 X24.643 Y150.000 F134.52
(T: 151 L: 3)
G1 X24.643 Y150.800 F100.00
G1 X25.203 Y151.000 F134.52
(T: 152 L: 3)
G1 X25.203 Y151.800 F100.00
G1 X25.763 Y152.000 F134.52
(T: 153 L: 3)
G1 X25.763 Y152.800 F100.00
G1 X26.323 Y153.000 F134.52
(T: 154 L: 3)
G1 X26.323 Y153.800 F100.00
G1 X26.883 Y154.000 F134.52
(T: 155 L: 3)
G1 X26.883 Y154.800 F100.00
G1 X27.443 Y155.000 F134.52
(T: 156 L: 3)
G1 X27.443 Y155.800 F100.00
G1 X28.003 Y156.000 F134.52
(T: 157 L: 3)
G1 X28.003 Y156.800 F100.00
G1 X28.564 Y157.000 F134.52
(T: 158 L: 3)
G1 X28.564 Y157.800 F100.00
G1 X29.124 Y158.000 F134.52
(T: 159 L: 3)
G1 X29.124 Y158.800 F10.00
G1 X29.124 Y159.000 F10.00
(T: 160 L: 4)
G1 X29.124 Y159.800 F10.00
G1 X28.564 Y160.000 F13.45
(T: 161 L: 4)
G1 X28.564 Y160.800 F100.00
G1 X28.003 Y161.000 F134.52
(T: 162 L: 4)
G1 X28.003 Y161.800 F100.00
G1 X27.443 Y162.000 F134.52
(T: 163 L: 4)
G1 X27.443 Y162.800 F100.00
G1 X26.883 Y163.000 F134.52
(T: 164 L: 4)
G1 X26.883 Y163.800 F100.00
G1 X26.323 Y164.000 F134.52
(T: 165 L: 4)
G1 X26.323 Y164.800 F100.00
G1 X25.763 Y165.000 F134.52
(T: 166 L: 4)
G1 X25.763 Y165.800 F100.00
G1 X25.203 Y166.000 F134.52
(T: 167 L: 4)
G1 X25.203 Y166.800 F100.00
G1 X24.643 Y167.000 F134.52
(T: 168 L: 4)
G1 X24.643 Y167.800 F100.00
G1 X24.083 Y168.000 F134.52
(T: 169 L: 4)
G1 X24.083 Y168.800 F100.00
G1 X23.523 Y169.000 F134.52
(T: 170 L: 4)
G1 X23.523 Y169.800 F100.00
G1 X22.963 Y170.000 F134.52
(T: 171 L: 4)
G1 X22.963 Y170.800 F100.00
G1 X22.403 Y171.000 F134.52
(T: 172 L: 4)
G1 X22.403 Y171.800 F100.00
G1 X21.843 Y172.000 F134.52
(T: 173 L: 4)
G1 X21.843 Y172.800 F100.00
G1 X21.283 Y173.000 F134.52
(T: 174 L: 4)
G1 X21.283 Y173.800 F100.00
G1 X20.723 Y174.000 F134.52
(T: 175 L: 4)
G1 X20.723 Y174.800 F100.00
G1 X20.163 Y175.000 F134.52
(T: 176 L: 4)
G1 X20.163 Y175.800 F100.00
G1 X19.602 Y176.000 F134.52
(T: 177 L: 4)
G1 X19.602 Y176.800 F100.00
G1 X19.042 Y177.000 F134.52
(T: 178 L: 4)
G1 X19.042 Y177.800 F100.00
G1 X18.482 Y178.000 F134.52
(T: 179 L: 4)
G1 X18.482 Y178.800 F100.00
G1 X17.922 Y179.000 F134.52
(T: 180 L: 4)
G1 X17.922 Y179.800 F100.00
G1 X17.362 Y180.000 F134.52
(T: 181 L: 4)
G1 X17.362 Y180.800 F100.00
G1 X16.802 Y181.000 F134.52
(T: 182 L: 4)
G1 X16.802 Y181.800 F100.00
G1 X16.242 Y182.000 F134.52
(T: 183 L: 4)
G1 X16.242 Y182.800 F100.00
G1 X15.682 Y183.000 F134.52
(T: 184 L: 4)
G1 X15.682 Y183.800 F100.00
G1 X15.122 Y184.000 F134.52
(T: 185 L: 4)
G1 X15.122 Y184.800 F100.00
G1 X14.562 Y185.000 F134.52
(T: 186 L: 4)
G1 X14.562 Y185.800 F100.00
G1 X14.002 Y186.000 F134.52
(T: 187 L: 4)
G1 X14.002 Y186.800 F100.00
G1 X13.442 Y187.000 F134.52
(T: 188 L: 4)
G1 X13.442 Y187.800 F100.00
G1 X12.882 Y188.000 F134.52
(T: 189 L: 4)
G1 X12.882 Y188.800 F100.00
G1 X12.322 Y189.000 F134.52
(T: 190 L: 4)
G1 X12.322 Y189.800 F100.00
G1 X11.761 Y190.000 F134.52
(T: 191 L: 4)
G1 X11.761 Y190.800 F100.00
G1 X11.201 Y191.000 F134.52
(T: 192 L: 4)
G1 X11.201 Y191.800 F100.00
G1 X10.641 Y192.000 F134.52
(T: 193 L: 4)
G1 X10.641 Y192.800 F100.00
G1 X10.081 Y193.000 F134.52
(T: 194 L: 4)
G1 X10.081 Y193.800 F100.00
G1 X9.521 Y194.000 F134.52
(T: 195 L: 4)
G1 X9.521 Y194.800 F100.00
G1 X8.961 Y195.000 F134.52
(T: 196 L: 4)
G1 X8.961 Y195.800 F100.00
G1 X8.401 Y196.000 F134.52
(T: 197 L: 4)
G1 X8.401 Y196.800 F100.00
G1 X7.841 Y197.000 F134.52
(T: 198 L: 4)
G1 X7.841 Y197.800 F100.00
G1 X7.281 Y198.000 F134.52
(T: 199 L: 4)
G1 X7.281 Y198.800 F100.00
G1 X6.721 Y199.000 F134.52
(T: 200 L: 4)
G1 X6.721 Y199.800 F100.00
G1 X6.161 Y200.000 F134.52
(T: 201 L: 4)
G1 X6.161 Y200.800 F100.00
G1 X5.601 Y201.000 F134.52
(T: 202 L: 4)
G1 X5.601 Y201.800 F100.00
G1 X5.041 Y202.000 F134.52
(T: 203 L: 4)
G1 X5.041 Y202.800 F100.00
G1 X4.481 Y203.000 F134.52
(T: 204 L: 4)
G1 X4.481 Y203.800 F100.00
G1 X3.920 Y204.000 F134.52
(T: 205 L: 4)
G1 X3.920 Y204.800 F100.00
G1 X3.360 Y205.000 F134.52
(T: 206 L: 4)
G1 X3.360 Y205.800 F100.00
G1 X2.800 Y206.000 F134.52
(T: 207 L: 4)
G1 X2.800 Y206.800 F100.00
G1 X2.240 Y207.000 F134.52
(T: 208 L: 4)
G1 X2.240 Y207.800 F100.00
G1 X1.680 Y208.000 F134.52
(T: 209 L: 4)
G1 X1.680 Y208.800 F100.00
G1 X1.120 Y209.000 F134.52
(T: 210 L: 4)
G1 X1.120 Y209.800 F100.00
G1 X0.560 Y210.000 F134.52
(T: 211 L: 4)
G1 X0.560 Y210.800 F100.00
G1 X0.000 Y211.000 F134.52
(T: 212 L: 4)
G1 X0.000 Y211.800 F10.00
G1 X0.000 Y212.000 F10.00
(T: 213 L: 5)
G1 X0.000 Y212.800 F10.00
G1 X0.560 Y213.000 F13.45
(T: 214 L: 5)
G1 X0.560 Y213.800 F100.00
G1 X1.120 Y214.000 F134.52
(T: 215 L: 5)
G1 X1.120 Y214.800 F100.00
G1 X1.680 Y215.000 F134.52
(T: 216 L: 5)
G1 X1.680 Y215.800 F100.00
G1 X2.240 Y216.000 F134.52
(T: 217 L: 5)
G1 X2.240 Y216.800 F100.00
G1 X2.800 Y217.000 F134.52
(T: 218 L: 5)
G1 X2.800 Y217.800 F100.00
G1 X3.360 Y218.000 F134.52
(T: 219 L: 5)
G1 X3.360 Y218.800 F100.00
G1 X3.920 Y219.000 F134.52
(T: 220 L: 5)
G1 X3.920 Y219.800 F100.00
G1 X4.481 Y220.000 F134.52
(T: 221 L: 5)
G1 X4.481 Y220.800 F100.00
G1 X5.041 Y221.000 F134.52
(T: 222 L: 5)
G1 X5.041 Y221.800 F100.00
G1 X5.601 Y222.000 F134.52
(T: 223 L: 5)
G1 X5.601 Y222.800 F100.00
G1 X6.161 Y223.000 F134.52
(T: 224 L: 5)
G1 X6.161 Y223.800 F100.00
G1 X6.721 Y224.000 F134.52
(T: 225 L: 5)
G1 X6.721 Y224.800 F100.00
G1 X7.281 Y225.000 F134.52
(T: 226 L: 5)
G1 X7.281 Y225.800 F100.00
G1 X7.841 Y226.000 F134.52
(T: 227 L: 5)
G1 X7.841 Y226.800 F100.00
G1 X8.401 Y227.000 F134.52
(T: 228 L: 5)
G1 X8.401 Y227.800 F100.00
G1 X8.961 Y228.000 F134.52
(T: 229 L: 5)
G1 X8.961 Y228.800 F100.00
G1 X9.521 Y229.000 F134.52
(T: 230 L: 5)
G1 X9.521 Y229.800 F100.00
G1 X10.081 Y230.000 F134.52
(T: 231 L: 5)
G1 X10.081 Y230.800 F100.00
G1 X10.641 Y231.000 F134.52
(T: 232 L: 5)
G1 X10.641 Y231.800 F100.00
G1 X11.201 Y232.000 F134.52
(T: 233 L: 5)
G1 X11.201 Y232.800 F100.00
G1 X11.761 Y233.000 F134.52
(T: 234 L: 5)
G1 X11.761 Y233.800 F100.00
G1 X12.322 Y234.000 F134.52
(T: 235 L: 5)
G1 X12.322 Y234.800 F100.00
G1 X12.882 Y235.000 F134.52
(T: 236 L: 5)
G1 X12.882 Y235.800 F100.00
G1 X13.442 Y236.000 F134.52
(T: 237 L: 5)
G1 X13.442 Y236.800 F100.00
G1 X14.002 Y237.000 F134.52
(T: 238 L: 5)
G1 X14.002 Y237.800 F100.00
G1 X14.562 Y238.000 F134.52
(T: 239 L: 5)
G1 X14.562 Y238.800 F100.00
G1 X15.122 Y239.000 F134.52
(T: 240 L: 5)
G1 X15.122 Y239.800 F100.00
G1 X15.682 Y240.000 F134.52
(T: 241 L: 5)
G1 X15.682 Y240.800 F100.00
G1 X16.242 Y241.000 F134.52
(T: 242 L: 5)
G1 X16.242 Y241.800 F100.00
G1 X16.802 Y242.000 F134.52
(T: 243 L: 5)
G1 X16.802 Y242.800 F100.00
G1 X17.362 Y243.000 F134.52
(T: 244 L: 5)
G1 X17.362 Y243.800 F100.00
G1 X17.922 Y244.000 F134.52
(T: 245 L: 5)
G1 X17.922 Y244.800 F100.00
G1 X18.482 Y245.000 F134.52
(T: 246 L: 5)
G1 X18.482 Y245.800 F100.00
G1 X19.042 Y246.000 F134.52
(T: 247 L: 5)
G1 X19.042 Y246.800 F100.00
G1 X19.602 Y247.000 F134.52
(T: 248 L: 5)
G1 X19.602 Y247.800 F100.00
G1 X20.163 Y248.000 F134.52
(T: 249 L: 5)
G1 X20.163 Y248.800 F100.00
G1 X20.723 Y249.000 F134.52
(T: 250 L: 5)
G1 X20.723 Y249.800 F100.00
G1 X21.283 Y250.000 F134.52
(T: 251 L: 5)
G1 X21.283 Y250.800 F100.00
G1 X21.843 Y251.000 F134.52
(T: 252 L: 5)
G1 X21.843 Y251.800 F100.00
G1 X22.403 Y252.000 F134.52
(T: 253 L: 5)
G1 X22.403 Y252.800 F100.00
G1 X22.963 Y253.000 F134.52
(T: 254 L: 5)
G1 X22.963 Y253.800 F100.00
G1 X23.523 Y254.000 F134.52
(T: 255 L: 5)
G1 X23.523 Y254.800 F100.00
G1 X24.083 Y255.000 F134.52
(T: 256 L: 5)
G1 X24.083 Y255.800 F100.00
G1 X24.643 Y256.000 F134.52
(T: 257 L: 5)
G1 X24.643 Y256.800 F100.00
G1 X25.203 Y257.000 F134.52
(T: 258 L: 5)
G1 X25.203 Y257.800 F100.00
G1 X25.763 Y258.000 F134.52
(T: 259 L: 5)
G1 X25.763 Y258.800 F100.00
G1 X26.323 Y259.000 F134.52
(T: 260 L: 5)
G1 X26.323 Y259.800 F100.00
G1 X26.883 Y260.000 F134.52
(T: 261 L: 5)
G1 X26.883 Y260.800 F100.00
G1 X27.443 Y261.000 F134.52
(T: 262 L: 5)
G1 X27.443 Y261.800 F100.00
G1 X28.003 Y262.000 F134.52
(T: 263 L: 5)
G1 X28.003 Y262.800 F100.00
G1 X28.564 Y263.000 F134.52
(T: 264 L: 5)
G1 X28.564 Y263.800 F100.00
G1 X29.124 Y264.000 F134.52
(T: 265 L: 5)
G1 X29.124 Y264.800 F10.00
G1 X29.124 Y265.000 F10.00
(T: 266 L: 6)
G1 X29.124 Y265.800 F10.00
G1 X28.564 Y266.000 F13.45
(T: 267 L: 6)
G1 X28.564 Y266.800 F100.00
G1 X28.003 Y267.000 F134.52
(T: 268 L: 6)
G1 X28.003 Y267.800 F100.00
G1 X27.443 Y268.000 F134.52
(T: 269 L: 6)
G1 X27.443 Y268.800 F100.00
G1 X26.883 Y269.000 F134.52
(T: 270 L: 6)
G1 X26.883 Y269.800 F100.00
G1 X26.323 Y270.000 F134.52
(T: 271 L: 6)
G1 X26.323 Y270.800 F100.00
G1 X25.763 Y271.000 F134.52
(T: 272 L: 6)
G1 X25.763 Y271.800 F100.00
G1 X25.203 Y272.000 F134.52
(T: 273 L: 6)
G1 X25.203 Y272.800 F100.00
G1 X24.643 Y273.000 F134.52
(T: 274 L: 6)
G1 X24.643 Y273.800 F100.00
G1 X24.083 Y274.000 F134.52
(T: 275 L: 6)
G1 X24.083 Y274.800 F100.00
G1 X23.523 Y275.000 F134.52
(T: 276 L: 6)
G1 X23.523 Y275.800 F100.00
G1 X22.963 Y276.000 F134.52
(T: 277 L: 6)
G1 X22.963 Y276.800 F100.00
G1 X22.403 Y277.000 F134.52
(T: 278 L: 6)
G1 X22.403 Y277.800 F100.00
G1 X21.843 Y278.000 F134.52
(T: 279 L: 6)
G1 X21.843 Y278.800 F100.00
G1 X21.283 Y279.000 F134.52
(T: 280 L: 6)
G1 X21.283 Y279.800 F100.00
G1 X20.723 Y280.000 F134.52
(T: 281 L: 6)
G1 X20.723 Y280.800 F100.00
G1 X20.163 Y281.000 F134.52
(T: 282 L: 6)
G1 X20.163 Y281.800 F100.00
G1 X19.602 Y282.000 F134.52
(T: 283 L: 6)
G1 X19.602 Y282.800 F100.00
G1 X19.042 Y283.000 F134.52
(T: 284 L: 6)
G1 X19.042 Y283.800 F100.00
G1 X18.482 Y284.000 F134.52
(T: 285 L: 6)
G1 X18.482 Y284.800 F100.00
G1 X17.922 Y285.000 F134.52
(T: 286 L: 6)
G1 X17.922 Y285.800 F100.00
G1 X17.362 Y286.000 F134.52
(T: 287 L: 6)
G1 X17.362 Y286.800 F100.00
G1 X16.802 Y287.000 F134.52
(T: 288 L: 6)
G1 X16.802 Y287.800 F100.00
G1 X16.242 Y288.000 F134.52
(T: 289 L: 6)
G1 X16.242 Y288.800 F100.00
G1 X15.682 Y289.000 F134.52
(T: 290 L: 6)
G1 X15.682 Y289.800 F100.00
G1 X15.122 Y290.000 F134.52
(T: 291 L: 6)
G1 X15.122 Y290.800 F100.00
G1 X14.562 Y291.000 F134.52
(T: 292 L: 6)
G1 X14.562 Y291.800 F100.00
G1 X14.002 Y292.000 F134.52
(T: 293 L: 6)
G1 X14.002 Y292.800 F100.00
G1 X13.442 Y293.000 F134.52
(T: 294 L: 6)
G1 X13.442 Y293.800 F100.00
G1 X12.882 Y294.000 F134.52
(T: 295 L: 6)
G1 X12.882 Y294.800 F100.00
G1 X12.322 Y295.000 F134.52
(T: 296 L: 6)
G1 X12.322 Y295.800 F100.00
G1 X11.761 Y296.000 F134.52
(T: 297 L: 6)
G1 X11.761 Y296.800 F100.00
G1 X11.201 Y297.000 F134.52
(T: 298 L: 6)
G1 X11.201 Y297.800 F100.00
G1 X10.641 Y298.000 F134.52
(T: 299 L: 6)
G1 X10.641 Y298.800 F100.00
G1 X10.081 Y299.000 F134.52
(T: 300 L: 6)
G1 X10.081 Y299.800 F100.00
G1 X9.521 Y300.000 F134.52
(T: 301 L: 6)
G1 X9.521 Y300.800 F100.00
G1 X8.961 Y301.000 F134.52
(T: 302 L: 6)
G1 X8.961 Y301.800 F100.00
G1 X8.401 Y302.000 F134.52
(T: 303 L: 6)
G1 X8.401 Y302.800 F100.00
G1 X7.841 Y303.000 F134.52
(T: 304 L: 6)
G1 X7.841 Y303.800 F100.00
G1 X7.281 Y304.000 F134.52
(T: 305 L: 6)
G1 X7.281 Y304.800 F100.00
G1 X6.721 Y305.000 F134.52
(T: 306 L: 6)
G1 X6.721 Y305.800 F100.00
G1 X6.161 Y306.000 F134.52
(T: 307 L: 6)
G1 X6.161 Y306.800 F100.00
G1 X5.601 Y307.000 F134.52
(T: 308 L: 6)
G1 X5.601 Y307.800 F100.00
G1 X5.041 Y308.000 F134.52
(T: 309 L: 6)
G1 X5.041 Y308.800 F100.00
G1 X4.481 Y309.000 F134.52
(T: 310 L: 6)
G1 X4.481 Y309.800 F100.00
G1 X3.920 Y310.000 F134.52
(T: 311 L: 6)
G1 X3.920 Y310.800 F100.00
G1 X3.360 Y311.000 F134.52
(T: 312 L: 6)
G1 X3.360 Y311.800 F100.00
G1 X2.800 Y312.000 F134.52
(T: 313 L: 6)
G1 X2.800 Y312.800 F100.00
G1 X2.240 Y313.000 F134.52
(T: 314 L: 6)
G1 X2.240 Y313.800 F100.00
G1 X1.680 Y314.000 F134.52
(T: 315 L: 6)
G1 X1.680 Y314.800 F100.00
G1 X1.120 Y315.000 F134.52
(T: 316 L: 6)
G1 X1.120 Y315.800 F100.00
G1 X0.560 Y316.000 F134.52
(T: 317 L: 6)
G1 X0.560 Y316.800 F100.00
G1 X0.000 Y317.000 F134.52
(T: 318 L: 6)
G1 X0.000 Y317.800 F10.00
G1 X0.000 Y318.000 F10.00
(T: 319 L: 7)
G1 X0.000 Y318.800 F10.00
G1 X0.560 Y319.000 F13.45
(T: 320 L: 7)
G1 X0.560 Y319.800 F100.00
G1 X1.120 Y320.000 F134.52
(T: 321 L: 7)
G1 X1.120 Y320.800 F100.00
G1 X1.680 Y321.000 F134.52
(T: 322 L: 7)
G1 X1.680 Y321.800 F100.00
G1 X2.240 Y322.000 F134.52
(T: 323 L: 7)
G1 X2.240 Y322.800 F100.00
G1 X2.800 Y323.000 F134.52
(T: 324 L: 7)
G1 X2.800 Y323.800 F100.00
G1 X3.360 Y324.000 F134.52
(T: 325 L: 7)
G1 X3.360 Y324.800 F100.00
G1 X3.920 Y325.000 F134.52
(T: 326 L: 7)
G1 X3.920 Y325.800 F100.00
G1 X4.481 Y326.000 F134.52
(T: 327 L: 7)
G1 X4.481 Y326.800 F100.00
G1 X5.041 Y327.000 F134.52
(T: 328 L: 7)
G1 X5.041 Y327.800 F100.00
G1 X5.601 Y328.000 F134.52
(T: 329 L: 7)
G1 X5.601 Y328.800 F100.00
G1 X6.161 Y329.000 F134.52
(T: 330 L: 7)
G1 X6.161 Y329.800 F100.00
G1 X6.721 Y330.000 F134.52
(T: 331 L: 7)
G1 X6.721 Y330.800 F100.00
G1 X7.281 Y331.000 F134.52
(T: 332 L: 7)
G1 X7.281 Y331.800 F100.00
G1 X7.841 Y332.000 F134.52
(T: 333 L: 7)
G1 X7.841 Y332.800 F100.00
G1 X8.401 Y333.000 F134.52
(T: 334 L: 7)
G1 X8.401 Y333.800 F100.00
G1 X8.961 Y334.000 F134.52
(T: 335 L: 7)
G1 X8.961 Y334.800 F100.00
G1 X9.521 Y335.000 F134.52
(T: 336 L: 7)
G1 X9.521 Y335.800 F100.00
G1 X10.081 Y336.000 F134.52
(T: 337 L: 7)
G1 X10.081 Y336.800 F100.00
G1 X10.641 Y337.000 F134.52
(T: 338 L: 7)
G1 X10.641 Y337.800 F100.00
G1 X11.201 Y338.000 F134.52
(T: 339 L: 7)
G1 X11.201 Y338.800 F100.00
G1 X11.761 Y339.000 F134.52
(T: 340 L: 7)
G1 X11.761 Y339.800 F100.00
G1 X12.322 Y340.000 F134.52
(T: 341 L: 7)
G1 X12.322 Y340.800 F100.00
G1 X12.882 Y341.000 F134.52
(T: 342 L: 7)
G1 X12.882 Y341.800 F100.00
G1 X13.442 Y342.000 F134.52
(T: 343 L: 7)
G1 X13.442 Y342.800 F100.00
G1 X14.002 Y343.000 F134.52
(T: 344 L: 7)
G1 X14.002 Y343.800 F100.00
G1 X14.562 Y344.000 F134.52
(T: 345 L: 7)
G1 X14.562 Y344.800 F100.00
G1 X15.122 Y345.000 F134.52
(T: 346 L: 7)
G1 X15.122 Y345.800 F100.00
G1 X15.682 Y346.000 F134.52
(T: 347 L: 7)
G1 X15.682 Y346.800 F100.00
G1 X16.242 Y347.000 F134.52
(T: 348 L: 7)
G1 X16.242 Y347.800 F100.00
G1 X16.802 Y348.000 F134.52
(T: 349 L: 7)
G1 X16.802 Y348.800 F100.00
G1 X17.362 Y349.000 F134.52
(T: 350 L: 7)
G1 X17.362 Y349.800 F100.00
G1 X17.922 Y350.000 F134.52
(T: 351 L: 7)
G1 X17.922 Y350.800 F100.00
G1 X18.482 Y351.000 F134.52
(T: 352 L: 7)
G1 X18.482 Y351.800 F100.00
G1 X19.042 Y352.000 F134.52
(T: 353 L: 7)
G1 X19.042 Y352.800 F100.00
G1 X19.602 Y353.000 F134.52
(T: 354 L: 7)
G1 X19.602 Y353.800 F100.00
G1 X20.163 Y354.000 F134.52
(T: 355 L: 7)
G1 X20.163 Y354.800 F100.00
G1 X20.723 Y355.000 F134.52
(T: 356 L: 7)
G1 X20.723 Y355.800 F100.00
G1 X21.283 Y356.000 F134.52
(T: 357 L: 7)
G1 X21.283 Y356.800 F100.00
G1 X21.843 Y357.000 F134.52
(T: 358 L: 7)
G1 X21.843 Y357.800 F100.00
G1 X22.403 Y358.000 F134.52
(T: 359 L: 7)
G1 X22.403 Y358.800 F100.00
G1 X22.963 Y359.000 F134.52
(T: 360 L: 7)
G1 X22.963 Y359.800 F100.00
G1 X23.523 Y360.000 F134.52
(T: 361 L: 7)
G1 X23.523 Y360.800 F100.00
G1 X24.083 Y361.000 F134.52
(T: 362 L: 7)
G1 X24.083 Y361.800 F100.00
G1 X24.643 Y362.000 F134.52
(T: 363 L: 7)
G1 X24.643 Y362.800 F100.00
G1 X25.203 Y363.000 F134.52
(T: 364 L: 7)
G1 X25.203 Y363.800 F100.00
G1 X25.763 Y364.000 F134.52
(T: 365 L: 7)
G1 X25.763 Y364.800 F100.00
G1 X26.323 Y365.000 F134.52
(T: 366 L: 7)
G1 X26.323 Y365.800 F100.00
G1 X26.883 Y366.000 F134.52
(T: 367 L: 7)
G1 X26.883 Y366.800 F100.00
G1 X27.443 Y367.000 F134.52
(T: 368 L: 7)
G1 X27.443 Y367.800 F100.00
G1 X28.003 Y368.000 F134.52
(T: 369 L: 7)
G1 X28.003 Y368.800 F100.00
G1 X28.564 Y369.000 F134.52
(T: 370 L: 7)
G1 X28.564 Y369.800 F100.00
G1 X29.124 Y370.000 F134.52
(T: 371 L: 7)
G1 X29.124 Y370.800 F10.00
G1 X29.124 Y371.000 F10.00
(T: 372 L: 8)
G1 X29.124 Y371.800 F10.00
G1 X28.564 Y372.000 F13.45
(T: 373 L: 8)
G1 X28.564 Y372.800 F100.00
G1 X28.003 Y373.000 F134.52
(T: 374 L: 8)
G1 X28.003 Y373.800 F100.00
G1 X27.443 Y374.000 F134.52
(T: 375 L: 8)
G1 X27.443 Y374.800 F100.00
G1 X26.883 Y375.000 F134.52
(T: 376 L: 8)
G1 X26.883 Y375.800 F100.00
G1 X26.323 Y376.000 F134.52
(T: 377 L: 8)
G1 X26.323 Y376.800 F100.00
G1 X25.763 Y377.000 F134.52
(T: 378 L: 8)
G1 X25.763 Y377.800 F100.00
G1 X25.203 Y378.000 F134.52
(T: 379 L: 8)
G1 X25.203 Y378.800 F100.00
G1 X24.643 Y379.000 F134.52
(T: 380 L: 8)
G1 X24.643 Y379.800 F100.00
G1 X24.083 Y380.000 F134.52
(T: 381 L: 8)
G1 X24.083 Y380.800 F100.00
G1 X23.523 Y381.000 F134.52
(T: 382 L: 8)
G1 X23.523 Y381.800 F100.00
G1 X22.963 Y382.000 F134.52
(T: 383 L: 8)
G1 X22.963 Y382.800 F100.00
G1 X22.403 Y383.000 F134.52
(T: 384 L: 8)
G1 X22.403 Y383.800 F100.00
G1 X21.843 Y384.000 F134.52
(T: 385 L: 8)
G1 X21.843 Y384.800 F100.00
G1 X21.283 Y385.000 F134.52
(T: 386 L: 8)
G1 X21.283 Y385.800 F100.00
G1 X20.723 Y386.000 F134.52
(T: 387 L: 8)
G1 X20.723 Y386.800 F100.00
G1 X20.163 Y387.000 F134.52
(T: 388 L: 8)
G1 X20.163 Y387.800 F100.00
G1 X19.602 Y388.000 F134.52
(T: 389 L: 8)
G1 X19.602 Y388.800 F100.00
G1 X19.042 Y389.000 F134.52
(T: 390 L: 8)
G1 X19.042 Y389.800 F100.00
G1 X18.482 Y390.000 F134.52
(T: 391 L: 8)
G1 X18.482 Y390.800 F100.00
G1 X17.922 Y391.000 F134.52
(T: 392 L: 8)
G1 X17.922 Y391.800 F100.00
G1 X17.362 Y392.000 F134.52
(T: 393 L: 8)
G1 X17.362 Y392.800 F100.00
G1 X16.802 Y393.000 F134.52
(T: 394 L: 8)
G1 X16.802 Y393.800 F100.00
G1 X16.242 Y394.000 F134.52
(T: 395 L: 8)
G1 X16.242 Y394.800 F100.00
G1 X15.682 Y395.000 F134.52
(T: 396 L: 8)
G1 X15.682 Y395.800 F100.00
G1 X15.122 Y396.000 F134.52
(T: 397 L: 8)
G1 X15.122 Y396.800 F100.00
G1 X14.562 Y397.000 F134.52
(T: 398 L: 8)
G1 X14.562 Y397.800 F100.00
G1 X14.002 Y398.000 F134.52
(T: 399 L: 8)
G1 X14.002 Y398.800 F100.00
G1 X13.442 Y399.000 F134.52
(T: 400 L: 8)
G1 X13.442 Y399.800 F100.00
G1 X12.882 Y400.000 F134.52
(T: 401 L: 8)
G1 X12.882 Y400.800 F100.00
G1 X12.322 Y401.000 F134.52
(T: 402 L: 8)
G1 X12.322 Y401.800 F100.00
G1 X11.761 Y402.000 F134.52
(T: 403 L: 8)
G1 X11.761 Y402.800 F100.00
G1 X11.201 Y403.000 F134.52
(T: 404 L: 8)
G1 X11.201 Y403.800 F100.00
G1 X10.641 Y404.000 F134.52
(T: 405 L: 8)
G1 X10.641 Y404.800 F100.00
G1 X10.081 Y405.000 F134.52
(T: 406 L: 8)
G1 X10.081 Y405.800 F100.00
G1 X9.521 Y406.000 F134.52
(T: 407 L: 8)
G1 X9.521 Y406.800 F100.00
G1 X8.961 Y407.000 F134.52
(T: 408 L: 8)
G1 X8.961 Y407.800 F100.00
G1 X8.401 Y408.000 F134.52
(T: 409 L: 8)
G1 X8.401 Y408.800 F100.00
G1 X7.841 Y409.000 F134.52
(T: 410 L: 8)
G1 X7.841 Y409.800 F100.00
G1 X7.281 Y410.000 F134.52
(T: 411 L: 8)
G1 X7.281 Y410.800 F100.00
G1 X6.721 Y411.000 F134.52
(T: 412 L: 8)
G1 X6.721 Y411.800 F100.00
G1 X6.161 Y412.000 F134.52
(T: 413 L: 8)
G1 X6.161 Y412.800 F100.00
G1 X5.601 Y413.000 F134.52
(T: 414 L: 8)
G1 X5.601 Y413.800 F100.00
G1 X5.041 Y414.000 F134.52
(T: 415 L: 8)
G1 X5.041 Y414.800 F100.00
G1 X4.481 Y415.000 F134.52
(T: 416 L: 8)
G1 X4.481 Y415.800 F100.00
G1 X3.920 Y416.000 F134.52
(T: 417 L: 8)
G1 X3.920 Y416.800 F100.00
G1 X3.360 Y417.000 F134.52
(T: 418 L: 8)
G1 X3.360 Y417.800 F100.00
G1 X2.800 Y418.000 F134.52
(T: 419 L: 8)
G1 X2.800 Y418.800 F100.00
G1 X2.240 Y419.000 F134.52
(T: 420 L: 8)
G1 X2.240 Y419.800 F100.00
G1 X1.680 Y420.000 F134.52
(T: 421 L: 8)
G1 X1.680 Y420.800 F100.00
G1 X1.120 Y421.000 F134.52
(T: 422 L: 8)
G1 X1.120 Y421.800 F100.00
G1 X0.560 Y422.000 F134.52
(T: 423 L: 8)
G1 X0.560 Y422.800 F100.00
G1 X0.000 Y423.000 F134.52
(T: 424 L: 8)
G1 X0.000 Y423.800 F10.00
G1 X0.000 Y424.000 F10.00
(T: 425 L: 9)
G1 X0.000 Y424.800 F10.00
G1 X0.560 Y425.000 F13.45
(T: 426 L: 9)
G1 X0.560 Y425.800 F100.00
G1 X1.120 Y426.000 F134.52
(T: 427 L: 9)
G1 X1.120 Y426.800 F100.00
G1 X1.680 Y427.000 F134.52
(T: 428 L: 9)
G1 X1.680 Y427.800 F100.00
G1 X2.240 Y428.000 F134.52
(T: 429 L: 9)
G1 X2.240 Y428.800 F100.00
G1 X2.800 Y429.000 F134.52
(T: 430 L: 9)
G1 X2.800 Y429.800 F100.00
G1 X3.360 Y430.000 F134.52
(T: 431 L: 9)
G1 X3.360 Y430.800 F100.00
G1 X3.920 Y431.000 F134.52
(T: 432 L: 9)
G1 X3.920 Y431.800 F100.00
G1 X4.481 Y432.000 F134.52
(T: 433 L: 9)
G1 X4.481 Y432.800 F100.00
G1 X5.041 Y433.000 F134.52
(T: 434 L: 9)
G1 X5.041 Y433.800 F100.00
G1 X5.601 Y434.000 F134.52
(T: 435 L: 9)
G1 X5.601 Y434.800 F100.00
G1 X6.161 Y435.000 F134.52
(T: 436 L: 9)
G1 X6.161 Y435.800 F100.00
G1 X6.721 Y436.000 F134.52
(T: 437 L: 9)
G1 X6.721 Y436.800 F100.00
G1 X7.281 Y437.000 F134.52
(T: 438 L: 9)
G1 X7.281 Y437.800 F100.00
G1 X7.841 Y438.000 F134.52
(T: 439 L: 9)
G1 X7.841 Y438.800 F100.00
G1 X8.401 Y439.000 F134.52
(T: 440 L: 9)
G1 X8.401 Y439.800 F100.00
G1 X8.961 Y440.000 F134.52
(T: 441 L: 9)
G1 X8.961 Y440.800 F100.00
G1 X9.521 Y441.000 F134.52
(T: 442 L: 9)
G1 X9.521 Y441.800 F100.00
G1 X10.081 Y442.000 F134.52
(T: 443 L: 9)
G1 X10.081 Y442.800 F100.00
G1 X10.641 Y443.000 F134.52
(T: 444 L: 9)
G1 X10.641 Y443.800 F100.00
G1 X11.201 Y444.000 F134.52
(T: 445 L: 9)
G1 X11.201 Y444.800 F100.00
G1 X11.761 Y445.000 F134.52
(T: 446 L: 9)
G1 X11.761 Y445.800 F100.00
G1 X12.322 Y446.000 F134.52
(T: 447 L: 9)
G1 X12.322 Y446.800 F100.00
G1 X12.882 Y447.000 F134.52
(T: 448 L: 9)
G1 X12.882 Y447.800 F100.00
G1 X13.442 Y448.000 F134.52
(T: 449 L: 9)
G1 X13.442 Y448.800 F100.00
G1 X14.002 Y449.000 F134.52
(T: 450 L: 9)
G1 X14.002 Y449.800 F100.00
G1 X14.562 Y450.000 F134.52
(T: 451 L: 9)
G1 X14.562 Y450.800 F100.00
G1 X15.122 Y451.000 F134.52
(T: 452 L: 9)
G1 X15.122 Y451.800 F100.00
G1 X15.682 Y452.000 F134.52
(T: 453 L: 9)
G1 X15.682 Y452.800 F100.00
G1 X16.242 Y453.000 F134.52
(T: 454 L: 9)
G1 X16.242 Y453.800 F100.00
G1 X16.802 Y454.000 F134.52
(T: 455 L: 9)
G1 X16.802 Y454.800 F100.00
G1 X17.362 Y455.000 F134.52
(T: 456 L: 9)
G1 X17.362 Y455.800 F100.00
G1 X17.922 Y456.000 F134.52
(T: 457 L: 9)
G1 X17.922 Y456.800 F100.00
G1 X18.482 Y457.000 F134.52
(T: 458 L: 9)
G1 X18.482 Y457.800 F100.00
G1 X19.042 Y458.000 F134.52
(T: 459 L: 9)
G1 X19.042 Y458.800 F100.00
G1 X19.602 Y459.000 F134.52
(T: 460 L: 9)
G1 X19.602 Y459.800 F100.00
G1 X20.163 Y460.000 F134.52
(T: 461 L: 9)
G1 X20.163 Y460.800 F100.00
G1 X20.723 Y461.000 F134.52
(T: 462 L: 9)
G1 X20.723 Y461.800 F100.00
G1 X21.283 Y462.000 F134.52
(T: 463 L: 9)
G1 X21.283 Y462.800 F100.00
G1 X21.843 Y463.000 F134.52
(T: 464 L: 9)
G1 X21.843 Y463.800 F100.00
G1 X22.403 Y464.000 F134.52
(T: 465 L: 9)
G1 X22.403 Y464.800 F100.00
G1 X22.963 Y465.000 F134.52
(T: 466 L: 9)
G1 X22.963 Y465.800 F100.00
G1 X23.523 Y466.000 F134.52
(T: 467 L: 9)
G1 X23.523 Y466.800 F100.00
G1 X24.083 Y467.000 F134.52
(T: 468 L: 9)
G1 X24.083 Y467.800 F100.00
G1 X24.643 Y468.000 F134.52
(T: 469 L: 9)
G1 X24.643 Y468.800 F100.00
G1 X25.203 Y469.000 F134.52
(T: 470 L: 9)
G1 X25.203 Y469.800 F100.00
G1 X25.763 Y470.000 F134.52
(T: 471 L: 9)
G1 X25.763 Y470.800 F100.00
G1 X26.323 Y471.000 F134.52
(T: 472 L: 9)
G1 X26.323 Y471.800 F100.00
G1 X26.883 Y472.000 F134.52
(T: 473 L: 9)
G1 X26.883 Y472.800 F100.00
G1 X27.443 Y473.000 F134.52
(T: 474 L: 9)
G1 X27.443 Y473.800 F100.00
G1 X28.003 Y474.000 F134.52
(T: 475 L: 9)
G1 X28.003 Y474.800 F100.00
G1 X28.564 Y475.000 F134.52
(T: 476 L: 9)
G1 X28.564 Y475.800 F100.00
G1 X29.124 Y476.000 F134.52
(T: 477 L: 9)
G1 X29.124 Y476.800 F10.00
G1 X29.124 Y477.000 F10.00
(T: 478 L: 10)
G1 X29.124 Y477.800 F10.00
G1 X28.564 Y478.000 F13.45
(T: 479 L: 10)
G1 X28.564 Y478.800 F100.00
G1 X28.003 Y479.000 F134.52
(T: 480 L: 10)
G1 X28.003 Y479.800 F100.00
G1 X27.443 Y480.000 F134.52
(T: 481 L: 10)
G1 X27.443 Y480.800 F100.00
G1 X26.883 Y481.000 F134.52
(T: 482 L: 10)
G1 X26.883 Y481.800 F100.00
G1 X26.323 Y482.000 F134.52
(T: 483 L: 10)
G1 X26.323 Y482.800 F100.00
G1 X25.763 Y483.000 F134.52
(T: 484 L: 10)
G1 X25.763 Y483.800 F100.00
G1 X25.203 Y484.000 F134.52
(T: 485 L: 10)
G1 X25.203 Y484.800 F100.00
G1 X24.643 Y485.000 F134.52
(T: 486 L: 10)
G1 X24.643 Y485.800 F100.00
G1 X24.083 Y486.000 F134.52
(T: 487 L: 10)
G1 X24.083 Y486.800 F100.00
G1 X23.523 Y487.000 F134.52
(T: 488 L: 10)
G1 X23.523 Y487.800 F100.00
G1 X22.963 Y488.000 F134.52
(T: 489 L: 10)
G1 X22.963 Y488.800 F100.00
G1 X22.403 Y489.000 F134.52
(T: 490 L: 10)
G1 X22.403 Y489.800 F100.00
G1 X21.843 Y490.000 F134.52
(T: 491 L: 10)
G1 X21.843 Y490.800 F100.00
G1 X21.283 Y491.000 F134.52
(T: 492 L: 10)
G1 X21.283 Y491.800 F100.00
G1 X20.723 Y492.000 F134.52
(T: 493 L: 10)
G1 X20.723 Y492.800 F100.00
G1 X20.163 Y493.000 F134.52
(T: 494 L: 10)
G1 X20.163 Y493.800 F100.00
G1 X19.602 Y494.000 F134.52
(T: 495 L: 10)
G1 X19.602 Y494.800 F100.00
G1 X19.042 Y495.000 F134.52
(T: 496 L: 10)
G1 X19.042 Y495.800 F100.00
G1 X18.482 Y496.000 F134.52
(T: 497 L: 10)
G1 X18.482 Y496.800 F100.00
G1 X17.922 Y497.000 F134.52
(T: 498 L: 10)
G1 X17.922 Y497.800 F100.00
G1 X17.362 Y498.000 F134.52
(T: 499 L: 10)
G1 X17.362 Y498.800 F100.00
G1 X16.802 Y499.000 F134.52
(T: 500 L: 10)
G1 X16.802 Y499.800 F100.00
G1 X16.242 Y500.000 F134.52
(T: 501 L: 10)
G1 X16.242 Y500.800 F100.00
G1 X15.682 Y501.000 F134.52
(T: 502 L: 10)
G1 X15.682 Y501.800 F100.00
G1 X15.122 Y502.000 F134.52
(T: 503 L: 10)
G1 X15.122 Y502.800 F100.00
G1 X14.562 Y503.000 F134.52
(T: 504 L: 10)
G1 X14.562 Y503.800 F100.00
G1 X14.002 Y504.000 F134.52
(T: 505 L: 10)
G1 X14.002 Y504.800 F100.00
G1 X13.442 Y505.000 F134.52
(T: 506 L: 10)
G1 X13.442 Y505.800 F100.00
G1 X12.882 Y506.000 F134.52
(T: 507 L: 10)
G1 X12.882 Y506.800 F100.00
G1 X12.322 Y507.000 F134.52
(T: 508 L: 10)
G1 X12.322 Y507.800 F100.00
G1 X11.761 Y508.000 F134.52
(T: 509 L: 10)
G1 X11.761 Y508.800 F100.00
G1 X11.201 Y509.000 F134.52
(T: 510 L: 10)
G1 X11.201 Y509.800 F100.00
G1 X10.641 Y510.000 F134.52
(T: 511 L: 10)
G1 X10.641 Y510.800 F100.00
G1 X10.081 Y511.000 F134.52
(T: 512 L: 10)
G1 X10.081 Y511.800 F100.00
G1 X9.521 Y512.000 F134.52
(T: 513 L: 10)
G1 X9.521 Y512.800 F100.00
G1 X8.961 Y513.000 F134.52
(T: 514 L: 10)
G1 X8.961 Y513.800 F100.00
G1 X8.401 Y514.000 F134.52
(T: 515 L: 10)
G1 X8.401 Y514.800 F100.00
G1 X7.841 Y515.000 F134.52
(T: 516 L: 10)
G1 X7.841 Y515.800 F100.00
G1 X7.281 Y516.000 F134.52
(T: 517 L: 10)
G1 X7.281 Y516.800 F100.00
G1 X6.721 Y517.000 F134.52
(T: 518 L: 10)
G1 X6.721 Y517.800 F100.00
G1 X6.161 Y518.000 F134.52
(T: 519 L: 10)
G1 X6.161 Y518.800 F100.00
G1 X5.601 Y519.000 F134.52
(T: 520 L: 10)
G1 X5.601 Y519.800 F100.00
G1 X5.041 Y520.000 F134.52
(T: 521 L: 10)
G1 X5.041 Y520.800 F100.00
G1 X4.481 Y521.000 F134.52
(T: 522 L: 10)
G1 X4.481 Y521.800 F100.00
G1 X3.920 Y522.000 F134.52
(T: 523 L: 10)
G1 X3.920 Y522.800 F100.00
G1 X3.360 Y523.000 F134.52
(T: 524 L: 10)
G1 X3.360 Y523.800 F100.00
G1 X2.800 Y524.000 F134.52
(T: 525 L: 10)
G1 X2.800 Y524.800 F100.00
G1 X2.240 Y525.000 F134.52
(T: 526 L: 10)
G1 X2.240 Y525.800 F100.00
G1 X1.680 Y526.000 F134.52
(T: 527 L: 10)
G1 X1.680 Y526.800 F100.00
G1 X1.120 Y527.000 F134.52
(T: 528 L: 10)
G1 X1.120 Y527.800 F100.00
G1 X0.560 Y528.000 F134.52
(T: 529 L: 10)
G1 X0.560 Y528.800 F100.00
G1 X0.000 Y529.000 F134.52
(T: 530 L: 10)
G1 X0.000 Y529.800 F10.00
G1 X0.000 Y530.000 F10.00
(Complete!)
